!!!!SEGMENT: pl-wtm--r-711-m--004_moniuszko-stanislaw--litania-ostrobramska-rosa-mistica.krn
!!!cenid: 18xx:1738
!!!COM: Moniuszko, Stanisław
!!!COM-rismID: pe30008351
!!!CDT: 1819/05/05-1872/06/04
!!!CNT: Polish
!!!OPR: Litania Ostrobramska
!!!OTL: Rosa mistica
!!!OMV: 004
!!!PDT: 1849
!!!AGN: Sacred; Mass
!!!SMS-siglum: PL-Wtm
!!!SMS-shelfmark: R 711/M
!!!SMS-shelfwork: 001-004 M
!!!SMS-variant:
!!!SMS-altvar:
!!!NIFC-rismSourceID: 1001091106
!!!NIFC-islandoraID:
!!!URL-pdf-islandora:
!!!URL-scan:
!!!ONB-nifc: UWAGA: części Litanii: 1. Kyrie, 2. Christe audi nos, 3. Ora pro nobis, 4. Rosa mistica, 5. Agnus Dei
!!!OMD: Moderato.
!!!AIN: 1 cbass 1 cello 1 clars 1 cor 4 empty 1 fagot 1 flt 1 oboe 1 tromp 1 tromt 1 viola 2 violn
!!!key:
**kern	**dynam	**kern	**dynam	**kern	**text	**dynam	**kern	**text	**dynam	**kern	**text	**dynam	**kern	**text	**dynam	**kern	**dynam	**kern	**dynam	**kern	**dynam	**kern	**dynam	**kern	**dynam	**kern	**dynam	**kern	**dynam	**kern	**dynam	**kern	**dynam	**kern	**dynam
*part16	*part16	*part15	*part15	*part14	*part14	*part14	*part13	*part13	*part13	*part12	*part12	*part12	*part11	*part11	*part11	*part10	*part10	*part9	*part9	*part8	*part8	*part7	*part7	*part6	*part6	*part5	*part5	*part4	*part4	*part3	*part3	*part2	*part2	*part1	*part1
*staff16	*	*staff15	*	*staff14	*staff14	*	*staff13	*staff13	*	*staff12	*staff12	*	*staff11	*staff11	*	*staff10	*	*staff9	*	*staff8	*	*staff7	*	*staff6	*	*staff5	*	*staff4	*	*staff3	*	*staff2	*	*staff1	*
*	*	*	*	*group4	*	*	*group4	*	*	*group4	*	*	*group4	*	*	*group3	*	*group3	*	*group3	*	*group2	*	*group2	*	*group2	*	*group1	*	*group1	*	*group1	*	*group1	*
*Icbass	*	*Icello	*	*Iempty	*	*	*Iempty	*	*	*Iempty	*	*	*Iempty	*	*	*Iviola	*	*Ivioln	*	*Ivioln	*	*Itromt	*	*Itromp	*	*Icor	*	*Ifagot	*	*Iclars	*	*Ioboe	*	*Iflt	*
*I"CbS.	*	*I"Vcell.	*	*I""Coro.	*	*	*I""Coro.	*	*	*I""Coro.	*	*	*I""Coro.	*	*	*I"Vla	*	*I"V. 2.	*	*I"V. 1.	*	*I"Trombon.	*	*I"Trombi. in D.	*	*I"Corni. in D.	*	*I"Fagotto.	*	*I"Clarinetti in C.	*	*I"Oboe.	*	*I"Flauti.	*
*clefF4	*	*clefF4	*	*clefF4	*	*	*clefC4	*	*	*clefC3	*	*	*clefC1	*	*	*clefC3	*	*clefG2	*	*clefG2	*	*clefF4	*	*clefG2	*	*clefG2	*	*clefF4	*	*clefG2	*	*clefG2	*	*clefG2	*
*ITrd0c0	*	*	*	*	*	*	*	*	*	*	*	*	*	*	*	*	*	*	*	*	*	*	*	*ITrd-1c-2	*	*ITrd6c10	*	*	*	*	*	*	*	*	*
*k[b-e-]	*	*k[b-e-]	*	*k[b-e-]	*	*	*k[b-e-]	*	*	*k[b-e-]	*	*	*k[b-e-]	*	*	*k[b-e-]	*	*k[b-e-]	*	*k[b-e-]	*	*k[b-e-]	*	*k[f#c#]	*	*k[f#c#]	*	*k[b-e-]	*	*k[b-e-]	*	*k[b-e-]	*	*k[b-e-]	*
*g:	*	*g:	*	*g:	*	*	*g:	*	*	*g:	*	*	*g:	*	*	*g:	*	*g:	*	*g:	*	*g:	*	*	*	*	*	*g:	*	*g:	*	*g:	*	*g:	*
*M2/4	*	*M2/4	*	*M2/4	*	*	*M2/4	*	*	*M2/4	*	*	*M2/4	*	*	*M2/4	*	*M2/4	*	*M2/4	*	*M2/4	*	*M2/4	*	*M2/4	*	*M2/4	*	*M2/4	*	*M2/4	*	*M2/4	*
=1	=1	=1	=1	=1	=1	=1	=1	=1	=1	=1	=1	=1	=1	=1	=1	=1	=1	=1	=1	=1	=1	=1	=1	=1	=1	=1	=1	=1	=1	=1	=1	=1	=1	=1	=1
!	!	!	!LO:DY:b	!	!	!LO:DY:rj:b	!LO:TX:t=P:problem=kolejność znaków B- E-	!	!LO:DY:rj:b	!LO:DY:rj	!	!LO:DY:rj:b	!	!	!LO:DY:rj	!	!	!	!	!	!	!	!	!	!	!	!	!	!	!LO:TX:t=P:problem=znaki przykluczowe instrumentów transponujących błędne	!	!	!	!LO:TX:t=P:problem=skreślone oznaczenia tempa "Andante"	!
2r	.	4d^\	f	4d^\	.	f	4d^\	.	f	4d^\	.	f	4dd^\	Ro-	f	4d\	.	4dd^\	f	4dd^\	f	2r	.	2r	.	2r	.	2r	.	2r	.	2r	.	2r	.
.	.	4G^\	.	4G^\	.	.	4G^/	.	.	4g^\	.	.	4g^\	-sa	.	4G/	.	4g^/	.	4g^\	.	.	.	.	.	.	.	.	.	.	.	.	.	.	.
=2	=2	=2	=2	=2	=2	=2	=2	=2	=2	=2	=2	=2	=2	=2	=2	=2	=2	=2	=2	=2	=2	=2	=2	=2	=2	=2	=2	=2	=2	=2	=2	=2	=2	=2	=2
2r	.	8.A\L	.	8.A\	.	.	8.A\	.	.	8.a\	.	.	8.a\	mi-	.	8.A/L	.	8.a/L	.	8.a/L	.	2r	.	2r	.	2r	.	2r	.	2r	.	2r	.	2r	.
.	.	16F#X\Jk	.	16F#X\	.	.	16F#X/	.	.	16f#X\	.	.	16f#X/	-sti-	.	16F#X/Jk	.	16f#X/Jk	.	16f#X/Jk	.	.	.	.	.	.	.	.	.	.	.	.	.	.	.
.	.	8D\	.	8D\	.	.	8D/	.	.	8d\	.	.	8d/	-ca	.	8D/	.	8d/	.	8d/	.	.	.	.	.	.	.	.	.	.	.	.	.	.	.
.	.	8r	.	8r	.	.	8r	.	.	8r	.	.	8r	.	.	8r	.	8r	.	8r	.	.	.	.	.	.	.	.	.	.	.	.	.	.	.
!	!	!	!	!	!	!	!	!	!LO:DY:b:t=p.	!	!	!LO:DY:b	!	!	!LO:DY:b	!	!	!	!	!	!	!	!	!	!	!	!	!	!	!	!	!	!	!	!
.	.	.	.	.	.	.	.	.	p	.	.	p	.	.	p	.	.	.	.	.	.	.	.	.	.	.	.	.	.	.	.	.	p	.	.
=3	=3	=3	=3	=3	=3	=3	=3	=3	=3	=3	=3	=3	=3	=3	=3	=3	=3	=3	=3	=3	=3	=3	=3	=3	=3	=3	=3	=3	=3	=3	=3	=3	=3	=3	=3
!	!	!	!	!	!	!	!LO:TX:a:i:t=Solo.	!	!	!LO:TX:a:i:t=Solo	!	!	!LO:TX:a:i:t=Solo.	!	!	!	!	!	!	!	!	!	!	!	!	!	!	!	!	!LO:DY:rj	!	!	!LO:HP:a	!	!
2r	.	2r	.	2r	.	.	4B-\	.	.	4d\	.	.	4g\	o-	.	2r	.	2r	.	2r	.	2r	.	2r	.	2r	.	(4B-\	p <	2r	.	(4g/	<	2r	.
.	.	.	.	.	.	.	8A\	.	.	8d\	.	.	8a\	-ra	.	.	.	.	.	.	.	.	.	.	.	.	.	8A\L	.	.	.	8a/L	.	.	.
!	!	!	!	!	!	!	!	!	!	!	!	!	!	!	!	!	!	!	!	!	!	!	!	!	!	!	!	!	!	!	!	!LO:TX:t=P:problem=skreślony kasownik	!	!	!
.	.	.	.	.	.	.	8G\	.	.	8d\	.	.	8b-\	pro	.	.	.	.	.	.	.	.	.	.	.	.	.	8G\J	[	.	.	8b-/J	[	.	.
=4	=4	=4	=4	=4	=4	=4	=4	=4	=4	=4	=4	=4	=4	=4	=4	=4	=4	=4	=4	=4	=4	=4	=4	=4	=4	=4	=4	=4	=4	=4	=4	=4	=4	=4	=4
!	!	!	!	!	!	!	!	!	!	!	!	!	!	!	!	!	!	!	!	!	!	!	!	!	!	!	!	!	!	!	!	!LO:TX:t=P:problem=skreślony kasownik	!LO:HP:a	!	!
2r	.	2r	.	2r	.	.	4d\	.	.	4g\	.	.	4b-\	no-	.	2r	.	2r	.	2r	.	2r	.	2r	.	2r	.	4d\	.	2r	.	4b-/	>	2r	.
.	.	.	.	.	.	.	.	.	.	.	.	.	.	.	.	.	.	.	.	.	.	.	.	.	.	.	.	.	>	.	.	.	.	.	.
.	.	.	.	.	.	.	8d\	.	.	8d\	.	.	8a\	-bis	.	.	.	.	.	.	.	.	.	.	.	.	.	8D\)	.	.	.	8a/)	]	.	.
!	!	!	!	!	!	!	!	!	!	!	!	!LO:DY:b	!	!	!LO:DY:t=f.	!	!	!	!	!	!	!	!	!	!	!	!	!	!	!	!	!	!	!	!
.	.	.	.	.	.	.	8r	.	.	8r	.	f	8r	.	f	.	.	.	.	.	.	.	.	.	.	.	.	8r	]	.	.	8r	.	.	.
!	!	!	!	!	!	!LO:DY:b	!LO:TX:a:i:t=tutti.	!	!LO:DY:b	!	!	!	!	!	!	!	!	!	!	!	!	!	!	!	!	!	!	!	!	!	!	!	!	!	!
.	.	.	.	.	.	f	.	.	f	.	.	.	.	.	.	.	f	.	f	.	f	.	.	.	.	.	.	.	.	.	.	.	.	.	.
=5	=5	=5	=5	=5	=5	=5	=5	=5	=5	=5	=5	=5	=5	=5	=5	=5	=5	=5	=5	=5	=5	=5	=5	=5	=5	=5	=5	=5	=5	=5	=5	=5	=5	=5	=5
!	!	!	!	!	!	!	!	!	!	!LO:TX:a:i:t=tutti	!	!	!LO:TX:a:i:t=tutti.	!	!	!	!	!	!	!	!	!	!	!	!	!	!	!	!	!	!	!	!	!	!
2r	.	4d^\	.	4d\	.	.	4d\	.	.	4d\	.	.	4dd\	tu-	.	4d^\	.	4dd^\	.	4dd^/	.	2r	.	2r	.	2r	.	2r	.	2r	.	2r	.	2r	.
.	.	4G^\	.	8.G\	.	.	8.G\	.	.	8.g\	.	.	8.g\	-ris	.	4G^/	.	4g^/	.	4g^/	.	.	.	.	.	.	.	.	.	.	.	.	.	.	.
.	.	.	.	16G\	.	.	16G\	.	.	16g\	.	.	16g\	da-	.	.	.	.	.	.	.	.	.	.	.	.	.	.	.	.	.	.	.	.	.
=6	=6	=6	=6	=6	=6	=6	=6	=6	=6	=6	=6	=6	=6	=6	=6	=6	=6	=6	=6	=6	=6	=6	=6	=6	=6	=6	=6	=6	=6	=6	=6	=6	=6	=6	=6
2r	.	8.A\L	.	8.A\	.	.	8.A/	.	.	8.a\	.	.	8.a\	-vi-	.	8.A/L	.	8.a/L	.	8.a/L	.	2r	.	2r	.	2r	.	2r	.	2r	.	2r	.	2r	.
.	.	16F#X\Jk	.	16F#X\	.	.	16F#X/	.	.	16f#X\	.	.	16f#X\	-di-	.	16F#X/Jk	.	16f#X/Jk	.	16f#X/Jk	.	.	.	.	.	.	.	.	.	.	.	.	.	.	.
.	.	8D\	.	8D\	.	.	8D/	.	.	8d\	.	.	8d/	-ca	.	8D/	.	8d/	.	8d/	.	.	.	.	.	.	.	.	.	.	.	.	.	.	.
.	.	8r	.	8r	.	.	8r	.	.	8r	.	.	8r	.	.	8r	.	8r	.	8r	.	.	.	.	.	.	.	.	.	.	.	.	.	.	.
.	.	.	.	.	.	.	.	.	.	.	.	.	.	.	.	.	.	.	.	.	.	.	.	.	.	.	.	.	p	.	.	.	p	.	.
=7	=7	=7	=7	=7	=7	=7	=7	=7	=7	=7	=7	=7	=7	=7	=7	=7	=7	=7	=7	=7	=7	=7	=7	=7	=7	=7	=7	=7	=7	=7	=7	=7	=7	=7	=7
2r	.	2r	.	4G\	.	p	4B-\	.	p	4d\	.	p	4g\	o-	p	2r	.	2r	.	2r	.	2r	.	2r	.	2r	.	(4G\	<	2r	.	(>4g/	<	2r	.
!	!	!	!	!LO:TX:a:i:t=Solo.	!	!	!LO:TX:a:i:t=Solo.	!	!	!LO:TX:a:i:t=Solo.	!	!	!LO:TX:a:i:t=Solo.	!	!	!	!	!	!	!	!	!	!	!	!	!	!	!	!	!	!	!	!	!	!
.	.	.	.	8F\	.	.	8c\	.	.	8f\	.	.	8a\	-ra	.	.	.	.	.	.	.	.	.	.	.	.	.	4F\	.	.	.	4a/	[[	.	.
.	.	.	.	8F\	.	.	8c\	.	.	8f\	.	.	8a\	pro	.	.	.	.	.	.	.	.	.	.	.	.	.	.	[	.	.	.	.	.	.
=8	=8	=8	=8	=8	=8	=8	=8	=8	=8	=8	=8	=8	=8	=8	=8	=8	=8	=8	=8	=8	=8	=8	=8	=8	=8	=8	=8	=8	=8	=8	=8	=8	=8	=8	=8
2r	.	2r	.	8.BB-\L	.	.	4d\	.	.	4f\	.	.	4b-\	no-	.	2r	.	2r	.	2r	.	2r	.	2r	.	2r	.	8.BB-\L	.	2r	.	4b-/	>	2r	.
.	.	.	.	.	.	.	.	.	.	.	.	.	.	.	.	.	.	.	.	.	.	.	.	.	.	.	.	.	>	.	.	.	.	.	.
.	.	.	.	16D\Jk	.	.	.	.	.	.	.	.	.	.	.	.	.	.	.	.	.	.	.	.	.	.	.	16D\Jk	.	.	.	.	.	.	.
!	!	!	!	!	!	!	!	!	!	!	!	!	!LO:TX:t=P:problem=skreślona nuta	!	!	!	!	!	!	!	!	!	!	!	!	!	!	!	!	!	!	!LO:TX:t=P:problem=skreślona nuta	!	!	!
.	.	.	.	8F\	.	.	8c\	.	.	8f\	.	.	8cc\	-bis	.	.	.	.	.	.	.	.	.	.	.	.	.	8F\)	.	.	.	8cc/)	.	.	.
.	.	.	.	8r	.	.	8r	.	.	8r	.	.	8r	.	.	.	.	.	.	.	.	.	.	.	.	.	.	8r	]	.	.	8r	]	.	.
!!LO:PB:g=original
=9	=9	=9	=9	=9	=9	=9	=9	=9	=9	=9	=9	=9	=9	=9	=9	=9	=9	=9	=9	=9	=9	=9	=9	=9	=9	=9	=9	=9	=9	=9	=9	=9	=9	=9	=9
!	!	!	!LO:DY:b	!	!	!	!LO:TX:a:i:t=tutti.	!	!	!LO:TX:a:i:t=tutti	!	!	!LO:TX:a:i:t=tutti	!	!LO:DY:rj:b	!	!LO:DY:rj	!	!LO:DY:rj	!	!LO:DY:rj	!	!	!	!	!	!	!	!	!	!	!	!	!	!
2r	.	4e-\	f	2r	.	.	4e-\	.	.	4e-\	.	.	4ee-\	tur-	f	4e-\	f	4ee-\	f	4ee-\	f	2ryy	.	2ryy	.	2ryy	.	2ryy	.	2ryy	.	2ryy	.	2ryy	.
.	.	8.B-\L	.	.	.	.	8.B-\	.	.	8.B-/	.	.	8.b-\	-ris	.	8.B-\L	.	8.b-\L	.	8.b-\L	.	.	.	.	.	.	.	.	.	.	.	.	.	.	.
.	.	16c\Jk	.	.	.	.	16c\	.	.	16c/	.	.	16cc\	e-	.	16c\Jk	.	16cc\Jk	.	16cc\Jk	.	.	.	.	.	.	.	.	.	.	.	.	.	.	.
=10	=10	=10	=10	=10	=10	=10	=10	=10	=10	=10	=10	=10	=10	=10	=10	=10	=10	=10	=10	=10	=10	=10	=10	=10	=10	=10	=10	=10	=10	=10	=10	=10	=10	=10	=10
!	!	!	!	!	!	!	!	!	!	!LO:TX:t=P:problem=zmiana rytmiczna dopisana ołówkiem	!	!	!	!	!	!	!	!	!	!	!	!	!	!	!	!	!	!	!	!	!	!	!	!	!
2r	.	8.d\L	.	2r	.	.	8.d\L	.	.	4d/	.	.	8.dd\L	-bur-	.	8.d\L	.	8.dd\L	.	8.dd\L	.	2ryy	.	2ryy	.	2ryy	.	2ryy	.	2ryy	.	2ryy	.	2ryy	.
.	.	16B-\Jk	.	.	.	.	16B-\Jk	.	.	.	.	.	16b-\Jk	-ne-	.	16B-\Jk	.	16b-\Jk	.	16b-\Jk	.	.	.	.	.	.	.	.	.	.	.	.	.	.	.
.	.	8G\	.	.	.	.	8G/	.	.	8g\	.	.	8g\	-a	.	8G/	.	8g\	.	8g/	.	.	.	.	.	.	.	.	.	.	.	.	.	.	.
.	.	8r	.	.	.	.	8r	.	.	8r	.	.	8r	.	.	8r	.	8r	.	8r	.	.	.	.	.	.	.	.	.	.	.	.	.	.	.
.	.	.	.	.	.	.	.	.	.	.	.	.	.	.	.	.	.	.	.	.	.	.	.	.	.	.	.	.	p	.	p	.	p	.	.
=11	=11	=11	=11	=11	=11	=11	=11	=11	=11	=11	=11	=11	=11	=11	=11	=11	=11	=11	=11	=11	=11	=11	=11	=11	=11	=11	=11	=11	=11	=11	=11	=11	=11	=11	=11
!	!	!	!	!LO:TX:a:i:t=Solo.	!	!LO:DY:rj:b	!LO:TX:a:i:t=Solo.	!	!LO:DY:rj:b	!LO:TX:a:i:t=Solo	!	!LO:DY:rj:b	!LO:TX:a:i:t=Solo.	!	!LO:DY:rj:b	!	!	!	!	!	!	!	!	!	!	!	!	!	!	!	!	!	!	!	!
2r	.	2r	.	4C/	.	p	4G/	.	p	4e-\	.	p	4cc\	o-	p	2r	.	2r	.	2r	.	2ryy	.	2ryy	.	2ryy	.	(2C/	.	2e-X 2c/	.	4cc/	.	2ryy	.
.	.	.	.	8.C/	.	.	8.G/	.	.	8.e-\	.	.	8.g\	-ra	.	.	.	.	.	.	.	.	.	.	.	.	.	.	.	.	.	8.g/L	.	.	.
.	.	.	.	16C/	.	.	16G/	.	.	16e-\	.	.	16a\	pro	.	.	.	.	.	.	.	.	.	.	.	.	.	.	.	.	.	16a/Jk	.	.	.
=12	=12	=12	=12	=12	=12	=12	=12	=12	=12	=12	=12	=12	=12	=12	=12	=12	=12	=12	=12	=12	=12	=12	=12	=12	=12	=12	=12	=12	=12	=12	=12	=12	=12	=12	=12
*	*	*	*	*	*	*	*	*	*	*	*	*	*	*	*	*	*	*	*	*	*	*	*	*	*	*	*	*	*	*^	*	*	*	*	*
2r	.	2r	.	4GG/	.	.	4G/	.	.	4d\	.	.	4b-\	no-	.	2r	.	2r	.	2r	.	2ryy	.	2ryy	.	2ryy	.	8GG/)	.	8d/	8d\	.	(4b-/	.	2ryy	.
.	.	.	.	.	.	.	.	.	.	.	.	.	.	.	.	.	.	.	.	.	.	.	.	.	.	.	.	8r	.	8r	8ryy	.	.	.	.	.
.	.	.	.	8G\	.	.	8G/	.	.	8g\	.	.	8g\	-bis	.	.	.	.	.	.	.	.	.	.	.	.	.	4r	.	4r	4ryy	.	8g/)	.	.	.
.	.	.	.	8r	.	.	8r	.	.	8r	.	.	8r	.	.	.	.	.	.	.	.	.	.	.	.	.	.	.	.	.	.	.	8r	.	.	.
*	*	*	*	*	*	*	*	*	*	*	*	*	*	*	*	*	*	*	*	*	*	*	*	*	*	*	*	*	*	*v	*v	*	*	*	*	*
=13	=13	=13	=13	=13	=13	=13	=13	=13	=13	=13	=13	=13	=13	=13	=13	=13	=13	=13	=13	=13	=13	=13	=13	=13	=13	=13	=13	=13	=13	=13	=13	=13	=13	=13	=13
!	!	!	!LO:DY:rj:b	!	!	!	!LO:TX:a:i:t=tutti.	!	!LO:DY:rj:b	!LO:TX:a:i:t=tutti	!	!LO:DY:rj:b	!LO:TX:a:i:t=tutti.	!	!LO:DY:rj:b	!	!LO:DY:rj	!	!LO:DY:rj	!	!LO:DY:rj	!	!	!	!	!	!	!	!	!	!	!	!	!	!
2r	.	4e-\	f	2r	.	.	4e-\	.	f	4e-\	.	f	4ee-\	do-	f	4e-\	f	4ee-\	f	4ee-\	f	2ryy	.	2ryy	.	2ryy	.	2ryy	.	2ryy	.	2ryy	.	2ryy	.
.	.	8.B-\L	.	.	.	.	8.B-\L	.	.	8.B-/L	.	.	8.b-\L	-mus	.	8.B-\L	.	8.b-\L	.	8.b-\L	.	.	.	.	.	.	.	.	.	.	.	.	.	.	.
.	.	16c\Jk	.	.	.	.	16c\Jk	.	.	16c/Jk	.	.	16cc\Jk	.	.	16c\Jk	.	16cc\Jk	.	16cc\Jk	.	.	.	.	.	.	.	.	.	.	.	.	.	.	.
=14	=14	=14	=14	=14	=14	=14	=14	=14	=14	=14	=14	=14	=14	=14	=14	=14	=14	=14	=14	=14	=14	=14	=14	=14	=14	=14	=14	=14	=14	=14	=14	=14	=14	=14	=14
2r	.	8.d\L	.	2r	.	.	8.d\	.	.	8.d\	.	.	8.dd\L	au-	.	8.d\L	.	8.dd\L	.	8.dd\L	.	2ryy	.	2ryy	.	2ryy	.	2ryy	.	2ryy	.	2ryy	.	2ryy	.
.	.	16B-\Jk	.	.	.	.	16B-\	.	.	16B-\	.	.	16b-\Jk	-re-	.	16B-\Jk	.	16b-\Jk	.	16b-\Jk	.	.	.	.	.	.	.	.	.	.	.	.	.	.	.
.	.	8G\	.	.	.	.	8G/	.	.	8g\	.	.	8g\	-a	.	8G/	.	8g\	.	8g/	.	.	.	.	.	.	.	.	.	.	.	.	.	.	.
.	.	8r	.	.	.	.	8r	.	.	8r	.	.	8r	.	.	8r	.	8r	.	8r	.	.	.	.	.	.	.	.	.	.	.	.	.	.	.
.	.	.	.	.	.	.	.	.	.	.	.	.	.	.	.	.	.	.	.	.	.	.	pp	.	.	.	.	.	p	.	p	.	p	.	.
=15	=15	=15	=15	=15	=15	=15	=15	=15	=15	=15	=15	=15	=15	=15	=15	=15	=15	=15	=15	=15	=15	=15	=15	=15	=15	=15	=15	=15	=15	=15	=15	=15	=15	=15	=15
*	*	*	*	*	*	*	*	*	*	*	*	*	*	*	*	*	*	*	*	*	*	*	*	*	*	*	*	*	*	*^	*	*	*	*	*
*	*	*	*	*	*	*	*	*	*	*	*	*	*	*	*	*	*	*	*	*	*	*	*	*	*	*	*	*2\right	*	*	*	*	*	*	*	*
!	!	!	!	!	!	!	!LO:TX:t=P:problem=skreślona nuta	!	!	!	!	!	!	!	!	!	!	!	!	!	!	!	!	!	!	!	!	!	!	!	!	!	!	!	!	!
!	!	!	!	!LO:TX:a:i:t=Solo.	!	!LO:DY:rj:b	!	!	!	!LO:TX:a:i:t=Solo.	!	!LO:DY:rj:b	!LO:TX:a:i:t=Solo.	!	!LO:DY:rj:b	!	!	!	!	!	!	!	!	!	!	!	!	!	!	!	!	!	!	!	!	!
2r	.	2r	.	4C/	.	p	4G/	.	p	4e-\	.	p	4dd\	o-	p	2r	.	2r	.	2r	.	(2C/	.	2ryy	.	2ryy	.	(2E-\	.	(<2e-X/	2r	.	(4cc/	.	2ryy	.
!	!	!	!	!	!	!	!LO:TX:a:i:t=Solo.	!	!	!	!	!	!	!	!	!	!	!	!	!	!	!	!	!	!	!	!	!	!	!	!	!	!	!	!	!
.	.	.	.	8.C/	.	.	8.E-/	.	.	8.e-\	.	.	8.g\	-ra	.	.	.	.	.	.	.	.	.	.	.	.	.	.	.	.	.	.	8.g/L	.	.	.
.	.	.	.	16C/	.	.	16E-/	.	.	16e-\	.	.	16a\	pro	.	.	.	.	.	.	.	.	.	.	.	.	.	.	.	.	.	.	16a/Jk	.	.	.
=16	=16	=16	=16	=16	=16	=16	=16	=16	=16	=16	=16	=16	=16	=16	=16	=16	=16	=16	=16	=16	=16	=16	=16	=16	=16	=16	=16	=16	=16	=16	=16	=16	=16	=16	=16	=16
2r	.	2r	.	4BB-\	.	.	4F/	.	.	4d\	.	.	4b-\	no-	.	2r	.	2r	.	2r	.	4BB-/	.	2ryy	.	2ryy	.	4F\	.	4d/	2rc	.	4b-/	.	2ryy	.
!	!	!	!	!	!	!	!	!	!	!	!	!	!	!	!	!	!	!	!	!	!	!LO:SIC:v:s=8E-	!	!	!	!	!	!	!	!	!	!	!	!	!	!
.	.	.	.	8E-\	.	.	8E-/	.	.	8e-\	.	.	8g\	-bis	.	.	.	.	.	.	.	8F/)	.	.	.	.	.	8E-\)	.	8e-/)	.	.	8g/)	.	.	.
.	.	.	.	8r	.	.	8r	.	.	8r	.	.	8r	.	.	.	.	.	f	.	.	8r	.	.	.	.	.	8r	f	8r	.	.	8r	.	.	.
=17	=17	=17	=17	=17	=17	=17	=17	=17	=17	=17	=17	=17	=17	=17	=17	=17	=17	=17	=17	=17	=17	=17	=17	=17	=17	=17	=17	=17	=17	=17	=17	=17	=17	=17	=17	=17
!	!	!	!	!LO:SIC:v:l:s=Foe-	!	!	!	!	!	!LO:SIC:v:l:s=Foe-	!	!	!	!	!	!	!	!	!	!	!	!	!	!	!	!	!	!	!	!	!	!	!	!	!	!
!	!	!	!LO:DY:rj:b	!LO:TX:a:i:t=tutti.	!	!LO:DY:rj:b:t=f.	!	!	!	!LO:TX:a:i:t=tutti	!	!LO:DY:rj:b	!	!	!	!	!LO:DY:rj	!	!	!	!	!	!	!	!	!	!	!	!	!	!	!	!	!	!	!
2r	.	4B-^\	f	4B-\	Fe-	f	2r	.	.	4b-\	Fe-	f	2r	.	.	4B-^/	f	4b-^/	.	2r	.	2ryy	.	2ryy	.	2ryy	.	(4B-\	.	(<4b-/	2rc	f	2ryy	.	2ryy	.
.	.	4G^\	.	8.G\	-de-	.	.	.	.	8.g\	-de-	.	.	.	.	4G^/	.	4g^/	.	.	.	.	.	.	.	.	.	4G\	.	4g/	.	.	.	.	.	.
.	.	.	.	16G\	-ris	.	.	.	.	16g\	-ris	.	.	.	.	.	.	.	.	.	.	.	.	.	.	.	.	.	.	.	.	.	.	.	.	.
=18	=18	=18	=18	=18	=18	=18	=18	=18	=18	=18	=18	=18	=18	=18	=18	=18	=18	=18	=18	=18	=18	=18	=18	=18	=18	=18	=18	=18	=18	=18	=18	=18	=18	=18	=18	=18
2r	.	4E-^\	.	4E-\	ar-	.	2ryy	.	.	4e-\	ar-	.	2r	.	.	4E-^/	.	4e-^/	.	2ryy	.	2ryy	.	2ryy	.	2ryy	.	4E-\	.	4e-/	2r	.	2ryy	.	2ryy	.
.	.	4D^\	.	4D\	-ca	.	.	.	.	4d\	-ca	.	.	.	.	4D^/	.	4d^/	.	.	.	.	.	.	.	.	.	8D\)	.	8d/)	.	.	.	.	.	.
.	.	.	.	.	.	.	.	.	.	.	.	.	.	.	.	.	.	.	.	.	.	.	.	.	.	.	.	8r	.	8r	.	.	.	.	.	.
*	*	*	*	*	*	*	*	*	*	*	*	*	*	*	*	*	*	*	*	*	*	*	*	*	*	*	*	*	*	*v	*v	*	*	*	*	*
!!LO:PB:g=original
=19	=19	=19	=19	=19	=19	=19	=19	=19	=19	=19	=19	=19	=19	=19	=19	=19	=19	=19	=19	=19	=19	=19	=19	=19	=19	=19	=19	=19	=19	=19	=19	=19	=19	=19	=19
*	*	*	*	*	*	*	*	*	*	*	*	*	*	*	*	*	*	*	*	*	*	*	*	*	*	*	*	*	*	*	*	*	*	*^	*
*2\right	*	*2\right	*	*2\right	*	*	*	*	*	*2\right	*	*	*	*	*	*2\right	*	*2\right	*	*	*	*	*	*2\right	*	*2\right	*	*	*	*2\right	*	*2\right	*	*	*	*
!	!LO:DY:rj:t=fff.	!	!LO:DY:rj:b	!	!	!LO:DY:rj:b:t=fff.	!LO:SIC:v:l:s=foe-	!	!LO:DY:rj:b	!	!	!LO:DY:rj:b	!	!	!LO:DY:rj:b	!	!LO:DY:rj:t=fff.	!	!	!	!LO:DY:rj:t=fff.	!	!LO:DY:rj:t=fff.	!	!LO:DY:rj:t=fff.	!	!LO:DY:rj:t=fff.	!	!LO:DY:rj:t=fff.	!	!LO:DY:rj:t=fff.	!	!LO:DY:rj:t=fff.	!	!	!
[2C#X\	fff	[2C#X\	fff	[2C#X\	o-	fff	4en\	fe-	fff	[2a\	o-	fff	4een\	fe-	fff	[2c#\	fff	[2aa [2a\	fff	4een 4a 4en\	fff	[2C#X/	fff	[2ee [2a\	fff	[2e [2A\	fff	[2En\	fff	[2aa [>2een\	fff	[2aa\	fff	4eeen/	4eeen\	.
.	.	.	.	.	.	.	8.c#X\	-de-	.	.	.	.	8.cc#X\	-de-	.	.	.	.	.	8.cc#X\L	.	.	.	.	.	.	.	.	.	.	.	.	.	8.ccc#X/L	8.ccc#\L	.
.	.	.	.	.	.	.	16c#\	-ris	.	.	.	.	16cc#\	-ris	.	.	.	.	.	16cc#\Jk	.	.	.	.	.	.	.	.	.	.	.	.	.	16ccc#/Jk	16ccc#\Jk	.
=20	=20	=20	=20	=20	=20	=20	=20	=20	=20	=20	=20	=20	=20	=20	=20	=20	=20	=20	=20	=20	=20	=20	=20	=20	=20	=20	=20	=20	=20	=20	=20	=20	=20	=20	=20	=20
2C#\]	.	2C#\]	.	4C#\]	.	.	4A\	ar-	.	4a\]	.	.	4a\	ar-	.	2c#\]	.	2aa] 2a\]	.	4a/	.	2C#/]	.	(2ee] 2a\_	.	(2e] 2A\_	.	(2E\]	.	2aa] 2ee\]	.	(2aa\]	.	4aa/	4aa\	.
.	.	.	.	4C#y\	-ra!	.	4A\	-ca	.	4a\	-ra	.	4a\	-ca	.	.	.	.	.	4g/	.	.	.	.	.	.	.	.	.	.	.	.	.	4gg/	4gg\	.
*	*	*	*	*	*	*	*	*	*	*	*	*	*	*	*	*	*	*	*	*	*	*	*	*	*	*	*	*	*	*	*	*	*	*v	*v	*
*kcancel	*	*kcancel	*	*kcancel	*	*	*kcancel	*	*	*kcancel	*	*	*kcancel	*	*	*kcancel	*	*kcancel	*	*kcancel	*	*kcancel	*	*kcancel	*	*kcancel	*	*kcancel	*	*kcancel	*	*kcancel	*	*kcancel	*
=21	=21	=21	=21	=21	=21	=21	=21	=21	=21	=21	=21	=21	=21	=21	=21	=21	=21	=21	=21	=21	=21	=21	=21	=21	=21	=21	=21	=21	=21	=21	=21	=21	=21	=21	=21
*k[f#]	*	*k[f#]	*	*k[f#]	*	*	*k[f#]	*	*	*k[f#]	*	*	*k[f#]	*	*	*k[f#]	*	*k[f#]	*	*k[f#]	*	*k[f#]	*	*k[f#c#]	*	*k[f#c#]	*	*k[f#]	*	*k[f#]	*	*k[f#]	*	*k[f#]	*
*	*	*	*	*	*	*	*	*	*	*	*	*	*	*	*	*	*	*	*	*	*	*	*	*^	*	*^	*	*	*	*^	*	*	*	*^	*
*	*	*	*	*	*	*	*	*	*	*	*	*	*	*	*	*	*	*	*	*	*	*	*	*	*	*	*	*	*	*	*	*	*^	*	*	*	*	*	*
!	!	!	!	!	!	!	!	!	!	!	!	!	!	!	!	!	!	!	!	!	!	!	!	!	!	!	!	!	!	!LO:TX:t=P:problem=skreślone nuty	!	!	!	!	!	!	!	!	!	!
!LO:TX:t=P:problem=brak oznaczenia tonacji	!	!	!	!	!	!	!	!	!	!	!	!	!	!	!	!LO:TX:t=P:problem=kolejność znaków F#	!	!LO:TX:t=P:problem=kolejność znaków f#	!	!LO:TX:t=P:problem=kolejność znaków f#	!	!	!	!	!	!	!	!	!	!LO:TX:a:t=d	!	!LO:TX:t=P:problem=kolejność znaków f#	!	!	!	!LO:TX:t=P:problem=kolejność znaków f#	!	!LO:TX:t=P:problem=kolejność znaków f#	!	!
8D\	.	4D^^\	.	4D\	Ja-	.	2r	.	.	4cc\	Ja-	.	2r	.	.	4cn^/	.	4dd 4d^/	.	8f#/	.	8D/	.	8a/])	8a\	.	8A/])	8A\	.	(4d/)	.	(4dd/	8a\	8a/	.	8a/)	.	8ff#/	8ff#\	.
8r	.	.	.	.	.	.	.	.	.	.	.	.	.	.	.	.	.	.	.	8r	.	8r	.	8r	8ryy	.	8r	8ryy	.	.	.	.	8r	8r	.	8r	.	8r	8ryy	.
!	!	!	!	!	!	!	!	!	!	!	!	!	!	!	!	!	!	!	!	!	!	!	!	!	!	!	!	!	!	!	!	!LO:TX:a:t=a	!	!	!	!	!	!	!	!
4r	.	8.A\L	.	8.A\	-nu-	.	.	.	.	8.a\	-nu-	.	.	.	.	8.A^/L	.	8.a^/L	.	4r	.	4r	.	4r	4ryy	.	4r	4ryy	.	4A/	.	4a/	4r	4ryy	.	4r	.	4r	4ryy	.
.	.	16A\Jk	.	16A\	-a	.	.	.	.	16a\	-a	.	.	.	.	16A/Jk	.	16a/Jk	.	.	.	.	.	.	.	.	.	.	.	.	.	.	.	.	.	.	.	.	.	.
*	*	*	*	*	*	*	*	*	*	*	*	*	*	*	*	*	*	*	*	*	*	*	*	*v	*v	*	*	*	*	*	*	*	*v	*v	*	*	*	*v	*v	*
*	*	*	*	*	*	*	*	*	*	*	*	*	*	*	*	*	*	*	*	*	*	*	*	*	*	*v	*v	*	*	*	*	*	*	*	*	*	*
=22	=22	=22	=22	=22	=22	=22	=22	=22	=22	=22	=22	=22	=22	=22	=22	=22	=22	=22	=22	=22	=22	=22	=22	=22	=22	=22	=22	=22	=22	=22	=22	=22	=22	=22	=22	=22
2r	.	4F#^^\	.	4F#\	cae-	.	2r	.	.	4f#\	cae-	.	2r	.	.	4F#^/	.	4f#^/	.	2r	.	2r	.	2r	.	2r	.	4F#X/	.	4f#X/	2r	.	2r	.	2r	.
!	!	!	!	!	!	!	!	!	!	!	!	!	!	!	!	!LO:SIC:v:s=4D	!	!LO:SIC:v:s=4d	!	!	!	!	!	!	!	!	!	!	!	!	!	!	!	!	!	!
.	.	4D^^\	.	4D\	-li	.	.	.	.	4d\	-li	.	.	.	.	4E^/	.	4e^/	.	.	.	.	.	.	.	.	.	4E/)	.	4e/)	.	.	.	.	.	.
!	!	!	!	!	!	!	!	!	!	!	!	!	!	!	!	!	!	!	!LO:DY:t=fff.	!	!LO:DY:t=fff.	!	!	!	!	!	!LO:DY:t=fff.	!	!	!	!	!	!	!LO:DY:t=fff.	!	!LO:DY:t=fff.
.	.	.	.	.	.	.	.	.	.	.	.	.	.	.	.	.	.	.	fff	.	fff	.	fff	.	.	.	fff.	.	.	.	.	.	.	fff	.	fff
=23	=23	=23	=23	=23	=23	=23	=23	=23	=23	=23	=23	=23	=23	=23	=23	=23	=23	=23	=23	=23	=23	=23	=23	=23	=23	=23	=23	=23	=23	=23	=23	=23	=23	=23	=23	=23
*	*	*	*	*	*	*	*	*	*	*	*	*	*	*	*	*	*	*	*	*	*	*	*	*	*	*	*	*	*	*	*	*	*	*	*^	*
*	*	*	*	*	*	*	*	*	*	*	*	*	*	*	*	*	*	*	*	*	*	*2\right	*	*	*	*	*	*	*	*	*	*	*	*	*	*	*
!	!LO:DY:rj	!	!LO:DY:rj:b	!	!	!LO:DY:rj:b:t=fff.	!	!	!LO:DY:rj:b:t=fff.	!	!	!LO:DY:rj:b	!	!	!LO:DY:rj:b	!	!	!	!	!	!	!	!	!	!LO:DY:rj	!	!	!	!LO:DY:rj:t=fff.	!	!	!LO:DY:rj:t=fff.	!	!	!	!	!
[2D#X\	fff	[2D#X\	fff	[2D#X\	o-	fff	4f#X\	Ja-	fff	[2bn\	o-	fff	4ff#X\	Ja-	fff	[2B [2D#X^/	.	[2ff#X [2b\	.	4ff#X\	.	[2D#X\	.	[2ff# [2a\	fff >	[2f# [2F#\	.	[2B\	fff	[2bbn/	[2ff#X\	fff	[2aa\	.	4fff#X/	4fff#X\	.
!	!	!	!LO:HP:b	!	!	!	!	!	!	!	!	!LO:HP:b	!	!	!	!	!	!	!	!	!	!	!	!	!	!	!	!	!	!	!	!	!	!	!	!	!
.	>	.	>	.	.	>	8.d#X\	-nu-	.	.	.	>	8.dd#X\	-nu-	.	.	.	.	>	8.dd#X\L	.	.	>	.	.	.	>	.	.	.	.	>	.	>	8.ddd#X/L	8.ddd#\L	>
.	.	.	.	.	.	.	.	.	.	.	.	.	.	.	>	.	.	.	.	.	>	.	.	.	.	.	.	.	.	.	.	.	.	.	.	.	.
.	.	.	.	.	.	.	16d#\	-a	.	.	.	.	16dd#\	-a	.	.	.	.	.	16dd#\Jk	.	.	.	.	.	.	.	.	.	.	.	.	.	.	16ddd#/Jk	16ddd#\Jk	.
=24	=24	=24	=24	=24	=24	=24	=24	=24	=24	=24	=24	=24	=24	=24	=24	=24	=24	=24	=24	=24	=24	=24	=24	=24	=24	=24	=24	=24	=24	=24	=24	=24	=24	=24	=24	=24	=24
2D#\]	.	2D#\]	.	4D#\]	.	.	4B\	cae-	.	2b\_	.	.	4b\	cae-	.	2B] 2D#/]	.	2ff#] 2b\]	.	4b/	.	2D#\]	.	4ff#] 4a\]	]	2f#] 2F#\]	.	2B\]	.	2bb/]	2ff#\]	.	2aa\]	.	4bb/	4bb\	.
.	.	.	.	4D#y\	-ra!	]	4B\	-li	.	.	.	]	4b\	-li,	]	.	.	.	]]	4a/	]]	.	]]	4r	.	.	]]	.	.	.	.	]	.	]	4aa/	4aa\	]
!	!	!	!	!	!	!LO:DY:b	!	!	!	!	!	!	!	!	!	!	!	!	!	!	!	!	!	!	!	!	!	!	!	!	!	!	!	!	!	!	!
.	]	.	]	.	.	p <	.	.	.	.	.	.	.	.	.	.	.	.	.	.	.	.	.	.	.	.	.	.	.	.	.	.	.	.	.	.	.
=25	=25	=25	=25	=25	=25	=25	=25	=25	=25	=25	=25	=25	=25	=25	=25	=25	=25	=25	=25	=25	=25	=25	=25	=25	=25	=25	=25	=25	=25	=25	=25	=25	=25	=25	=25	=25	=25
*	*	*	*	*	*	*	*	*	*	*	*	*	*	*	*	*	*	*	*	*	*	*	*	*	*	*^	*	*	*	*	*	*	*	*	*	*	*
*	*	*	*	*	*	*	*	*	*	*	*	*	*2\right	*	*	*	*	*	*	*	*	*	*	*	*	*	*	*	*	*	*	*	*	*	*	*	*	*
!	!	!	!	!	!	!	!	!	!	!	!	!LO:DY:rj	!	!	!LO:DY:rj	!	!	!	!LO:DY:rj	!	!LO:DY:rj	!	!	!	!	!	!	!	!	!LO:DY:rj	!	!	!LO:DY:rj	!	!LO:DY:rj	!	!	!
!	!LO:DY:rj	!	!LO:DY:rj:b	!	!	!	!	!	!LO:DY:rj	!	!	!LO:HP:b	!	!	!	!	!	!	!	!	!	!	!	!	!	!	!	!	!	!	!	!	!	!	!	!	!	!
2E\	p	8..E\L	p	2E\	stel-	.	2G/	stel-	p	2b\_	.	p <	2cc\	stel-	p	8..g\L	.	8..b\L	p	8..cc\L	p	8E\	.	2r	.	8ree	2r	.	2B\	p	2g/	2r	p	(2cc\	p	8gg/	8gg\	.
.	.	.	.	.	.	.	.	.	.	.	.	.	.	.	.	.	.	.	.	.	.	8r	.	.	.	8ree	.	.	.	.	.	.	.	.	.	8r	8ryy	.
.	<	32E\Jkk	.	.	.	.	.	.	.	.	.	.	.	.	.	32g\Jkk	.	32b\Jkk	.	32cc\Jkk	.	.	.	.	.	.	.	.	.	<	.	.	<	.	<	.	.	.
*	*	*rep	*	*	*	*	*	*	*	*	*	*	*	*	*	*rep	*	*rep	*	*	*	*	*	*	*	*	*	*	*	*	*	*	*	*	*	*	*	*
!	!	!	!LO:HP:b	!	!	!	!	!	!	!	!	!	!	!	!	!	!	!	!	!	!	!	!	!	!	!	!	!	!	!	!	!	!	!	!	!	!	!
.	.	8..E\L	<	.	.	.	.	.	.	.	.	.	.	.	<	8..g\L	.	8..b\L	<	8..cc\L	<	4r	.	.	.	4ree	.	.	.	.	.	.	.	.	.	4r	4ryy	.
.	.	32E\Jkk	.	.	.	.	.	.	.	.	.	.	.	.	.	32g\Jkk	.	32b\Jkk	.	32cc\Jkk	.	.	.	.	.	.	.	.	.	.	.	.	.	.	.	.	.	.
*	*	*Xrep	*	*	*	*	*	*	*	*	*	*	*	*	*	*Xrep	*	*Xrep	*	*	*	*	*	*	*	*	*	*	*	*	*	*	*	*	*	*	*	*
*	*	*	*	*	*	*	*	*	*	*	*	*	*	*	*	*	*	*	*	*	*	*	*	*	*	*v	*v	*	*	*	*	*	*	*	*	*v	*v	*
=26	=26	=26	=26	=26	=26	=26	=26	=26	=26	=26	=26	=26	=26	=26	=26	=26	=26	=26	=26	=26	=26	=26	=26	=26	=26	=26	=26	=26	=26	=26	=26	=26	=26	=26	=26	=26
*	*	*	*	*	*	*	*	*	*	*	*	*	*	*	*	*	*	*rep	*	*	*	*	*	*	*	*	*	*	*	*	*	*	*	*	*	*
2E#X\	.	8..E#X\L	.	2E#X\	-la	.	2G#X/	-la	.	2b\_	.	.	2cc#X\	-la	.	8..g#X\L	.	8..b\L	.	8..cc#X\L	.	2r	.	2r	.	2r	.	[2B\	.	2g#X/	2r	.	2cc#X\	.	2r	.
.	.	32E#\Jkk	.	.	.	.	.	.	.	.	.	.	.	.	.	32g#\Jkk	.	32b\Jkk	.	32cc#\Jkk	.	.	.	.	.	.	.	.	.	.	.	.	.	.	.	.
*	*	*rep	*	*	*	*	*	*	*	*	*	*	*	*	*	*rep	*	*	*	*rep	*	*	*	*	*	*	*	*	*	*	*	*	*	*	*	*
.	.	8..E#\L	.	.	.	.	.	.	.	.	.	.	.	.	.	8..g#\L	.	8..b\L	.	8..cc#\L	.	.	.	.	.	.	.	.	.	.	.	.	.	.	.	.
.	.	32E#\Jkk	.	.	.	.	.	.	.	.	.	.	.	.	.	32g#\Jkk	.	32b\Jkk	.	32cc#\Jkk	.	.	.	.	.	.	.	.	.	.	.	.	.	.	.	.
*	*	*Xrep	*	*	*	*	*	*	*	*	*	*	*	*	*	*Xrep	*	*Xrep	*	*Xrep	*	*	*	*	*	*	*	*	*	*	*	*	*	*	*	*
*	*	*	*	*	*	*	*	*	*	*	*	*	*	*	*	*	*	*	*	*	*	*	*	*	*	*	*	*	*	*v	*v	*	*	*	*	*
=27	=27	=27	=27	=27	=27	=27	=27	=27	=27	=27	=27	=27	=27	=27	=27	=27	=27	=27	=27	=27	=27	=27	=27	=27	=27	=27	=27	=27	=27	=27	=27	=27	=27	=27	=27
*	*	*	*	*	*	*	*	*	*	*	*	*	*	*	*	*	*	*rep	*	*	*	*	*	*	*	*	*	*	*	*	*	*	*	*	*
2F#\	.	8..F#\L	.	2F#\	ma-	.	(4F#/	ma-	.	2b\]	.	.	[2dd\	ma-	.	8..f#\L	.	8..b\L	.	8..dd\L	.	2r	.	2r	.	2r	.	2B\_	.	[2f#X/	.	[<2dd\	.	2r	.
.	.	32F#\Jkk	.	.	.	[	.	.	.	.	.	[	.	.	.	32f#\Jkk	.	32b\Jkk	.	32dd\Jkk	.	.	.	.	.	.	.	.	.	.	.	.	.	.	.
*	*	*rep	*	*	*	*	*	*	*	*	*	*	*	*	*	*rep	*	*	*	*rep	*	*	*	*	*	*	*	*	*	*	*	*	*	*	*
.	.	8..F#\L	.	.	.	.	4B/	.	.	.	.	.	.	.	.	8..f#\L	.	8..b\L	.	8..dd\L	.	.	.	.	.	.	.	.	.	.	.	.	.	.	.
.	[[	32F#\Jkk	.	.	.	.	.	.	.	.	.	.	.	.	.	32f#\Jkk	.	32b\Jkk	.	32dd\Jkk	.	.	.	.	.	.	.	.	.	.	.	.	.	.	.
*	*	*Xrep	*	*	*	*	*	*	*	*	*	*	*	*	*	*Xrep	*	*Xrep	*	*Xrep	*	*	*	*	*	*	*	*	*	*	*	*	*	*	*
=28	=28	=28	=28	=28	=28	=28	=28	=28	=28	=28	=28	=28	=28	=28	=28	=28	=28	=28	=28	=28	=28	=28	=28	=28	=28	=28	=28	=28	=28	=28	=28	=28	=28	=28	=28
2D\	.	8..D\L	[	2D\	-tu-	.	4d\)	-tu-	.	4a\	-ra	.	4dd\]	.	.	8..f#\L	.	8..cc\L	[	8..dd\L	.	2r	.	2r	.	2r	.	4B\]	.	4f#/]	.	4dd\])	.	2r	.
.	.	32D\Jkk	.	.	.	.	.	.	.	.	.	.	.	.	.	32f#\Jkk	.	32cc\Jkk	.	32dd\Jkk	[	.	.	.	.	.	.	.	[	.	[	.	[	.	.
*	*	*rep	*	*	*	*	*	*	*	*	*	*	*	*	*	*	*	*	*	*	*	*	*	*	*	*	*	*	*	*	*	*	*	*	*
.	.	8..D\L	.	.	.	.	4c\	.	.	4a\	pro	.	(8..ee\L	-tu-	[	8..e\L	.	8..cc/L	.	8..ee\L	.	.	.	.	.	.	.	8A\	.	4ryy	.	8..ee\L	.	.	.
.	.	.	.	.	.	.	.	.	.	.	.	.	.	.	.	.	.	.	.	.	.	.	.	.	.	.	.	8r	.	.	.	.	.	.	.
.	.	32D\Jkk	.	.	.	.	.	.	.	.	.	.	32ff#\Jkk)	.	.	32d\Jkk	.	32cc/Jkk	.	32ff#\Jkk	.	.	.	.	.	.	.	.	.	.	.	32ff#\Jkk	.	.	.
*	*	*Xrep	*	*	*	*	*	*	*	*	*	*	*	*	*	*	*	*	*	*	*	*	*	*	*	*	*	*	*	*	*	*	*	*	*
!!LO:PB:g=original
=29	=29	=29	=29	=29	=29	=29	=29	=29	=29	=29	=29	=29	=29	=29	=29	=29	=29	=29	=29	=29	=29	=29	=29	=29	=29	=29	=29	=29	=29	=29	=29	=29	=29	=29	=29
*	*	*	*	*	*	*	*	*	*	*	*	*	*	*	*	*	*	*	*	*	*	*	*	*^	*	*^	*	*	*	*^	*	*	*	*^	*
*	*	*	*	*	*	*	*2\right	*	*	*	*	*	*	*	*	*	*	*	*	*2\right	*	*	*	*	*	*	*	*	*	*	*	*	*	*	*	*	*2\right	*	*
!LO:TX:b:Bi:t=lento assai.:dur=4q	!	!	!	!	!	!	!	!	!	!	!	!	!	!	!	!	!	!	!	!	!	!LO:TX:t=P:problem=skreślona nuta	!	!	!	!	!	!	!	!	!	!	!	!	!	!	!LO:TX:a:Bi:t=lento assai.	!	!
2GG/	.	2G 2GG/	.	[2G\	-ti-	.	[2B\	-ti-	.	[2g\	no-	.	2gg\	-ti-	.	2g 2B\	.	2b 2d/	.	2gg\	.	[<2G\	.	[2dd/	2dd\	.	2g/	2D\	.	[2BB/	.	[2bb/	[2gg\	.	[2gg\	.	(2ggg/	2ggg\	.
=30	=30	=30	=30	=30	=30	=30	=30	=30	=30	=30	=30	=30	=30	=30	=30	=30	=30	=30	=30	=30	=30	=30	=30	=30	=30	=30	=30	=30	=30	=30	=30	=30	=30	=30	=30	=30	=30	=30	=30
!	!	!	!	!	!	!	!	!	!	!	!	!	!	!	!	!	!	!	!	!	!	!LO:TX:t=P:problem=skreślona nuta	!	!	!	!	!	!	!	!	!	!	!	!	!	!	!	!	!
4GG/	.	4G 4GG/	.	2G\]	.	.	(2B\]	.	.	2g\_	.	.	2dd\	-na	.	4b 4d 4G\	.	4gg 4b\	.	4bb\	.	2G\]	.	2dd/]	2dd\	.	4g/	4D\	.	2BB/]	.	2bb/]	2gg\]	.	2gg\_	.	4ddd/	4ddd\	.
4GG/	.	4G 4GG/	.	.	.	.	.	.	.	.	.	.	.	.	.	4b 4d\	.	4gg 4b\	.	4ddd\	.	.	.	.	.	.	4g/	4D\	.	.	.	.	.	.	.	.	4bb/	4bb\	.
=31	=31	=31	=31	=31	=31	=31	=31	=31	=31	=31	=31	=31	=31	=31	=31	=31	=31	=31	=31	=31	=31	=31	=31	=31	=31	=31	=31	=31	=31	=31	=31	=31	=31	=31	=31	=31	=31	=31	=31
!	!	!	!	!	!	!	!	!	!	!	!	!	!	!	!	!	!	!	!	!	!	!	!	!	!	!	!LO:TX:t=P:problem=skreślone nuty	!	!	!	!	!	!	!	!	!	!	!	!
2C\	.	2C 2CC/	.	[2C/	-na	.	2c\)	.	.	2g\]	.	.	2ee\	o-	.	2a\	.	2ee 2cc\	.	2ccc\	.	[2C/	.	2ee/	2ccX\	.	2e/	2A\	.	[2E\	.	[2aa/	(2gg\	.	2gg\_	.	2aa/	2aa\	.
*	*	*	*	*	*	*	*	*	*	*	*	*	*	*	*	*	*	*	*	*	*	*	*	*	*	*	*v	*v	*	*	*	*	*	*	*	*	*	*	*
=32	=32	=32	=32	=32	=32	=32	=32	=32	=32	=32	=32	=32	=32	=32	=32	=32	=32	=32	=32	=32	=32	=32	=32	=32	=32	=32	=32	=32	=32	=32	=32	=32	=32	=32	=32	=32	=32	=32
4C\	.	4C 4CC/	.	2C/]	.	.	2e\	-na	.	2g\	-bis	.	2cc\	-ra,	.	4e 4A/	.	4ee 4cc\	.	4ee\	.	2C/]	.	2ccX/	2a\	.	4e 4A\	.	2E\]	.	2aa/]	4ee\)	.	2gg\_	.	4ccc/	4ccc\	.
4C\	.	4C 4CC/	.	.	.	.	.	.	.	.	.	.	.	.	.	4e 4A 4C/	.	4ee 4a\	.	4aa\	.	.	.	.	.	.	4e 4A\	.	.	.	.	4cc\	.	.	.	4eee/	4eee\)	.
=33	=33	=33	=33	=33	=33	=33	=33	=33	=33	=33	=33	=33	=33	=33	=33	=33	=33	=33	=33	=33	=33	=33	=33	=33	=33	=33	=33	=33	=33	=33	=33	=33	=33	=33	=33	=33	=33	=33
*	*	*	*	*	*	*	*	*	*	*	*	*	*	*	*	*	*	*	*	*	*	*	*	*	*	*	*	*	*	*	*	*	*	*	*	*	*2\left	*
8D\	.	8D\	.	2D\	o-	.	2d\	o-	.	2g\	o-	.	2b\	o-	.	8D/	.	8d/	sf	8d/	sf	8D\	.	2dd 2d/	2ryy	.	8d 8D/	.	4B\	.	8gg/	8b\	.	8gg\]	.	2ddd/	2ddd\	.
8r	.	8r	.	.	.	.	.	.	.	.	.	.	.	.	.	8r	.	8r	.	8r	.	8r	.	.	.	.	8r	.	.	.	8r	8ryy	.	8r	.	.	.	.
!LO:TX:b:Bi:t=ralentando:dur=4q	!	!	!	!	!	!	!	!	!	!	!	!	!	!	!	!	!	!	!	!	!	!	!	!	!	!	!	!	!	!	!	!	!	!	!	!	!	!
4d^^\	.	4d^^\	.	.	.	.	.	.	.	.	.	.	.	.	.	4d^^\	.	[4gg [<4b 4d^^\	.	[4gg [<4b 4d^^\	.	4D^^\	.	.	.	.	[4d [4D/	.	[4B\	.	[4bb [4dd\	4ryy	.	[4gg\	.	.	.	.
*	*	*	*	*	*	*	*	*	*	*	*	*	*	*	*	*	*	*	*	*	*	*	*	*v	*v	*	*	*	*	*	*v	*v	*	*	*	*	*	*
=34	=34	=34	=34	=34	=34	=34	=34	=34	=34	=34	=34	=34	=34	=34	=34	=34	=34	=34	=34	=34	=34	=34	=34	=34	=34	=34	=34	=34	=34	=34	=34	=34	=34	=34	=34	=34
*	*	*	*	*	*	*	*	*	*	*	*	*	*	*	*	*	*	*	*	*	*	*	*	*	*	*	*	*	*	*	*	*	*	*	*2\right	*
!	!	!	!	!	!	!	!	!	!	!	!	!	!	!	!	!	!	!	!	!	!	!	!	!	!	!	!	!	!	!	!	!	!	!LO:TX:a:Bi:t=ralentando.	!	!
4B^^\	.	4B^^\	.	4B\	-ra	.	4d\	-ra	.	4g\	-ra	.	4g\	-ra	.	4B^^\	.	4gg] 4b\]	.	4gg] 4b\]	.	4BB^^/	.	4dd 4d/	.	4d] 4D/]	.	4B\]	.	4bb] 4dd\]	.	4gg\]	.	(2ggg/	[>2ggg\	.
4G^^\	.	4G^^\	.	4G\	pro	.	4c\	pro	.	4d\	pro	.	4dd\	pro	.	4G/	.	4gg 4b\	.	4gg 4b\	.	4GG^^/	.	4dd 4d/	.	4d 4D/	.	4B\	.	4bb 4gg\	.	4gg\	.	.	.	.
=35	=35	=35	=35	=35	=35	=35	=35	=35	=35	=35	=35	=35	=35	=35	=35	=35	=35	=35	=35	=35	=35	=35	=35	=35	=35	=35	=35	=35	=35	=35	=35	=35	=35	=35	=35	=35
*	*	*	*	*	*	*	*	*	*	*	*	*	*	*	*	*	*	*	*	*	*	*	*	*	*	*	*	*	*	*^	*	*	*	*	*	*
!	!	!	!	!	!	!	!	!	!	!	!	!	!	!	!	!	!	!	!	!	!	!	!	!	!	!	!	!LO:TX:t=P:problem=skreślona nuta	!	!	!	!	!LO:TX:t=P:problem=skreślone nuty	!	!	!	!
4D^^\	.	4D^^\	.	[2D\	no-	.	[2d\	no-	.	[2d\	no-	.	[2dd\	no-	.	4r	.	4r	.	4r	.	4D^^\	.	2ee 2a\	.	2e 2A\	.	(2d\	.	2aa/	(2gg\	.	[<2dd\	.	[2aaa/)	2ggg\]	.
4r	.	4r	.	.	.	.	.	.	.	.	.	.	.	.	.	8a 8d\	.	8gg 8a 8d\	.	8gg 8a 8d\	.	4r	.	.	.	.	.	.	.	.	.	.	.	.	.	.	.
.	.	.	.	.	.	.	.	.	.	.	.	.	.	.	.	8r	.	8r	.	8r	.	.	.	.	.	.	.	.	.	.	.	.	.	.	.	.	.
=36	=36	=36	=36	=36	=36	=36	=36	=36	=36	=36	=36	=36	=36	=36	=36	=36	=36	=36	=36	=36	=36	=36	=36	=36	=36	=36	=36	=36	=36	=36	=36	=36	=36	=36	=36	=36	=36
!	!	!	!	!	!	!	!LO:TX:t=P:problem=brak początku łuku	!	!	!	!	!	!	!	!	!	!	!	!	!	!	!	!	!	!	!	!	!	!	!LO:TX:t=P:problem=brak początku łuku	!	!	!LO:TX:t=P:problem=skreślone nuty	!	!	!	!
4D^^\	.	4D^^\	.	2D\]	.	.	(2d\]	.	.	2d\_	.	.	4dd\]	-bis	.	4r	.	4r	.	4r	.	4D^^\	.	2ff# 2dd\	.	2f# 2d\	.	2c\)	.	(<2aa/	2ff#\)	.	2dd\]	.	2aaa/]	2fff#\	.
4r	.	4r	.	.	.	.	.	.	.	.	.	.	4r	.	.	8a 8d\	.	8ff# 8a 8d\	.	8ff# 8a 8d\	.	4r	.	.	.	.	.	.	.	.	.	.	.	.	.	.	.
.	.	.	.	.	.	.	.	.	.	.	.	.	.	.	.	8r	.	8r	.	8r	.	.	.	.	.	.	.	.	.	.	.	.	.	.	.	.	.
*	*	*	*	*	*	*	*	*	*	*	*	*	*	*	*	*	*	*	*	*	*	*	*	*	*	*	*	*	*	*v	*v	*	*	*	*	*	*
!!LO:PB:g=original
=37||	=37||	=37||	=37||	=37||	=37||	=37||	=37||	=37||	=37||	=37||	=37||	=37||	=37||	=37||	=37||	=37||	=37||	=37||	=37||	=37||	=37||	=37||	=37||	=37||	=37||	=37||	=37||	=37||	=37||	=37||	=37||	=37||	=37||	=37||	=37||	=37||
*	*	*	*	*	*	*	*	*	*	*	*	*	*	*	*	*	*	*	*	*	*	*	*	*	*	*^	*	*	*	*	*	*	*	*	*	*
!	!	!LO:TX:b:i:t=pizzi.	!	!	!	!	!	!	!	!	!	!LO:DY:rj:t=pp.	!	!	!LO:DY:rj	!	!	!LO:TX:a:t=v. 2.	!LO:DY:rj	!LO:TX:a:t=v. 1.	!	!	!	!	!	!	!	!	!	!	!LO:TX:t=P:problem=skreślona nuta	!	!	!	!	!	!
!	!	!	!	!	!	!	!	!	!LO:DY:rj	!	!	!	!LO:TX:a:i:t=dolce.	!	!	!	!	!	!	!	!	!	!	!	!	!	!	!	!	!	!	!	!	!	!	!	!
[2GG^/	.	8GG\L	.	4G\	-bis	.	2B\)	.	pp	2d\]	.	pp	4dd\	Sa-	p	8r	.	(8B/L	p	4dd\	p	2r	.	8gg 8dd\	.	[2d/	8d\	.	4B\	.	8gg)	.	8b\	.	8ggg/	8ggg\	.
!	!	!	!	!	!	!	!	!	!	!	!	!	!LO:TX:a:i:t=Solo.	!	!	!	!	!	!	!LO:TX:b:i:t=dolce	!	!	!	!	!	!	!	!	!	!	!	!	!	!	!	!	!
.	.	8D\	.	.	.	.	.	.	.	.	.	.	.	.	.	8D/L	.	8d/	.	.	.	.	.	8r	.	.	8re	.	.	.	8r	.	8r	.	8r	8ryy	.
.	.	8B\	.	4r	.	.	.	.	.	.	.	.	4g\	-lus	.	8B/	.	8B/	.	4g/	.	.	.	4r	.	.	4re	.	4r	.	4r	.	4r	.	4r	4ryy	.
.	.	8D\J	.	.	.	.	.	.	.	.	.	.	.	.	.	8D/J	.	8d/J)	.	.	.	.	.	.	.	.	.	.	.	.	.	.	.	.	.	.	.
*	*	*	*	*	*	*	*	*	*	*	*	*	*	*	*	*	*	*	*	*	*	*	*	*	*	*	*	*	*	*	*	*	*	*	*v	*v	*
=38	=38	=38	=38	=38	=38	=38	=38	=38	=38	=38	=38	=38	=38	=38	=38	=38	=38	=38	=38	=38	=38	=38	=38	=38	=38	=38	=38	=38	=38	=38	=38	=38	=38	=38	=38	=38
2GG^/_	.	8GG\L	.	4r	.	.	2c\	-bis	.	2d\	-bis	.	8.a\L	in-	.	8r	.	(8c/L	.	8.a/L	.	2r	.	2r	.	2d/_	2rc	.	2r	.	2r	.	2r	.	2r	.
.	.	8D\	.	.	.	.	.	.	.	.	.	.	.	.	.	8D/L	.	8d/	.	.	.	.	.	.	.	.	.	.	.	.	.	.	.	.	.	.
.	.	.	.	.	.	.	.	.	.	.	.	.	16f#\Jk	.	.	.	.	.	.	16f#/Jk	.	.	.	.	.	.	.	.	.	.	.	.	.	.	.	.
.	.	8A\	.	8r	.	.	.	.	.	.	.	.	4d/	-fir-	.	8A/	.	8c/	.	4c/	.	.	.	.	.	.	.	.	.	.	.	.	.	.	.	.
!	!	!	!	!LO:TX:a:i:t=Solo.	!	!	!	!	!	!	!	!	!	!	!	!	!	!	!	!	!	!	!	!	!	!	!	!	!	!	!	!	!	!	!	!
.	.	8D\J	.	8D\	re-	.	.	.	.	.	.	.	.	.	.	8D/J	.	8d/J)	.	.	.	.	.	.	.	.	.	.	.	.	.	.	.	.	.	.
!	!	!	!	!	!	!	!	!	!	!LO:TX:a:i:t=Solo	!	!	!	!	!	!	!	!	!	!	!	!	!	!	!	!	!	!	!	!	!	!	!	!	!	!
.	.	.	.	.	.	.	.	.	.	.	.	.	.	.	.	.	.	.	.	.	.	.	.	.	.	.	.	.	.	.	.	.	.	.	.	p
=39	=39	=39	=39	=39	=39	=39	=39	=39	=39	=39	=39	=39	=39	=39	=39	=39	=39	=39	=39	=39	=39	=39	=39	=39	=39	=39	=39	=39	=39	=39	=39	=39	=39	=39	=39	=39
!	!	!	!	!	!	!	!LO:TX:a:i:t=Solo	!	!	!	!	!	!	!	!	!	!	!	!	!	!	!	!	!	!	!	!	!	!	!	!	!	!	!	!	!
*	*	*	*	*	*	*	*	*	*	*	*	*	*	*	*	*	*	*tremolo	*	*	*	*	*	*	*	*	*	*	*	*	*	*	*	*	*	*
2GG^/_	.	8GG\L	.	4D\	-fu-	.	2B\	.	.	2g\	o-	.	(4.g\	-mo-	.	8r	.	(8B/L	.	4g/	.	2r	.	2r	.	2d/_	2rc	.	2r	.	2ryy	.	2ryy	.	(4gg\	.
.	.	8D\	.	.	.	.	.	.	.	.	.	.	.	.	.	8D/L	.	8d/	.	.	.	.	.	.	.	.	.	.	.	.	.	.	.	.	.	.
.	.	8B\	.	4G\	-gium	.	.	.	.	.	.	.	.	.	.	8B/	.	8B/	.	8.B/L	.	.	.	.	.	.	.	.	.	.	.	.	.	.	8.b\L	.
.	.	8D\J	.	.	.	.	.	.	.	.	.	.	8b\)	.	.	8D/J	.	8d/J)	.	.	.	.	.	.	.	.	.	.	.	.	.	.	.	.	.	.
.	.	.	.	.	.	.	.	.	.	.	.	.	.	.	.	.	.	.	.	16e/Jk	.	.	.	.	.	.	.	.	.	.	.	.	.	.	16ee\Jk)	.
=40	=40	=40	=40	=40	=40	=40	=40	=40	=40	=40	=40	=40	=40	=40	=40	=40	=40	=40	=40	=40	=40	=40	=40	=40	=40	=40	=40	=40	=40	=40	=40	=40	=40	=40	=40	=40
2GG^/_	.	8GG\L	.	8.F#\L	pec-	.	4A\	.	.	4d\	-ra	.	4dd\	-rum	.	8r	.	(8A/L	.	(4d/	.	2r	.	2r	.	2d/_	2rc	.	2r	.	2ryy	.	2ryy	.	4dd\	.
.	.	8D\	.	.	.	.	.	.	.	.	.	.	.	.	.	8D/L	.	8d/	.	.	.	.	.	.	.	.	.	.	.	.	.	.	.	.	.	.
.	.	.	.	16A\Jk	.	.	.	.	.	.	.	.	.	.	.	.	.	.	.	.	.	.	.	.	.	.	.	.	.	.	.	.	.	.	.	.
.	.	8A\	.	4d\	-ca-	.	4d\	.	.	4d\	pro	.	4r	.	.	8A/	.	8A/	.	4dd\)	.	.	.	.	.	.	.	.	.	.	.	.	.	.	4r	.
.	.	8D\J	.	.	.	.	.	.	.	.	.	.	.	.	.	8D/J	.	8d/J)	.	.	.	.	.	.	.	.	.	.	.	.	.	.	.	.	.	.
=41	=41	=41	=41	=41	=41	=41	=41	=41	=41	=41	=41	=41	=41	=41	=41	=41	=41	=41	=41	=41	=41	=41	=41	=41	=41	=41	=41	=41	=41	=41	=41	=41	=41	=41	=41	=41
2GG^/_	.	8GG\L	.	4B\	-to-	.	2B\	.	.	2d\	no-	.	4dd\	con-	.	8r	.	(8B/L	.	4dd\	.	2r	.	2r	.	2d/_	2rc	.	2r	.	2ryy	.	2ryy	.	2r	.
.	.	8D\	.	.	.	.	.	.	.	.	.	.	.	.	.	8D/L	.	8d/	.	.	.	.	.	.	.	.	.	.	.	.	.	.	.	.	.	.
.	.	8B\	.	8G\	-rum	.	.	.	.	.	.	.	4g\	-so-	.	8B/	.	8B/	.	4g/	.	.	.	.	.	.	.	.	.	.	.	.	.	.	.	.
.	.	8D\J	.	8r	.	.	.	.	.	.	.	.	.	.	.	8D/J	.	8d/J)	.	.	.	.	.	.	.	.	.	.	.	.	.	.	.	.	.	.
=42	=42	=42	=42	=42	=42	=42	=42	=42	=42	=42	=42	=42	=42	=42	=42	=42	=42	=42	=42	=42	=42	=42	=42	=42	=42	=42	=42	=42	=42	=42	=42	=42	=42	=42	=42	=42
2GG^/_	.	8GG\L	.	4r	.	.	2c\	.	.	2d\	-bis	.	8.a\L	-la-	.	8r	.	(8c/L	.	8.a/L	.	2r	.	2r	.	2d/_	2rc	.	2r	.	2ryy	.	2ryy	.	2r	.
.	.	8D\	.	.	.	.	.	.	.	.	.	.	.	.	.	8D/L	.	8d/	.	.	.	.	.	.	.	.	.	.	.	.	.	.	.	.	.	.
.	.	.	.	.	.	.	.	.	.	.	.	.	16f#\Jk	.	.	.	.	.	.	16f#/Jk	.	.	.	.	.	.	.	.	.	.	.	.	.	.	.	.
.	.	8A\	.	8r	.	.	.	.	.	.	.	.	4d/	-trix	.	8A/	.	8c/	.	4d/	.	.	.	.	.	.	.	.	.	.	.	.	.	.	.	.
.	.	8D\J	.	8D\	au-	.	.	.	.	.	.	.	.	.	.	8D/J	.	8d/J)	.	.	.	.	.	.	.	.	.	.	.	.	.	.	.	.	.	.
=43	=43	=43	=43	=43	=43	=43	=43	=43	=43	=43	=43	=43	=43	=43	=43	=43	=43	=43	=43	=43	=43	=43	=43	=43	=43	=43	=43	=43	=43	=43	=43	=43	=43	=43	=43	=43
(2GG^/]	.	8GG\L	.	4D\	-xi-	.	2B\	.	.	2g\	o-	.	4.g\	af-	.	8r	.	(8B/L	.	4g/	.	2r	.	2r	.	2d/_	2rc	.	2r	.	2ryy	.	2ryy	.	(4gg\	p
.	.	8D\	.	.	.	.	.	.	.	.	.	.	.	.	.	8D/L	.	8d/	.	.	.	.	.	.	.	.	.	.	.	.	.	.	.	.	.	.
.	.	8G\	.	4G\	-lium	.	.	.	.	.	.	.	.	.	.	8G/	.	8B/	.	8.B/L	.	.	.	.	.	.	.	.	.	.	.	.	.	.	8.b\L	.
.	.	8D\J	.	.	.	.	.	.	.	.	.	.	8b\	-lic-	.	8D/J	.	8d/J)	.	.	.	.	.	.	.	.	.	.	.	.	.	.	.	.	.	.
.	.	.	.	.	.	.	.	.	.	.	.	.	.	.	.	.	.	.	.	16e/Jk	.	.	.	.	.	.	.	.	.	.	.	.	.	.	16ee\Jk)	.
*	*	*	*	*	*	*	*	*	*	*	*	*	*	*	*	*	*	*Xtremolo	*	*	*	*	*	*	*	*	*	*	*	*	*	*	*	*	*	*
=44	=44	=44	=44	=44	=44	=44	=44	=44	=44	=44	=44	=44	=44	=44	=44	=44	=44	=44	=44	=44	=44	=44	=44	=44	=44	=44	=44	=44	=44	=44	=44	=44	=44	=44	=44	=44
!	!	!	!	!	!	!	!LO:TX:t=P:problem=tekst słowny "ra" dopisany ołówkiem	!	!	!	!	!	!	!	!	!	!	!	!	!	!	!	!	!	!	!	!	!	!	!	!	!	!	!	!	!
!	!	!	!	!	!	!	!LO:TX:t=P:problem=łuk dopisany ołówkiem	!	!	!	!	!	!	!	!	!	!	!	!	!	!	!	!	!	!	!	!	!	!	!	!	!	!	!	!	!
4AA/	.	8AA/L	.	8.F#\L	Chri-	.	4A\	.	.	4d\	-ra	.	4.dd\	-to-	.	8A/L	.	(8A/L	.	(4d/	.	2r	.	2r	.	2d/]	2rc	.	2r	.	2ryy	.	4r	.	4dd\	.
.	.	8D/	.	.	.	.	.	.	.	.	.	.	.	.	.	8D/	.	8d/	.	.	.	.	.	.	.	.	.	.	.	.	.	.	.	.	.	.
.	.	.	.	16A\Jk	-sti-	.	.	.	.	.	.	.	.	.	.	.	.	.	.	.	.	.	.	.	.	.	.	.	.	.	.	.	.	.	.	.
4BB/)	.	8BB/	.	([<4d^\	-a-	.	4d\	.	.	4g\	pro	.	.	.	.	8B/	.	8G/	.	4dd\)	.	.	.	.	.	.	.	.	.	.	.	.	([4dd^<\	.	4r	.
.	.	8D/J	.	.	.	.	.	.	.	.	.	.	8dd\	-rum	.	8D/J	.	8d/J)	.	.	.	.	.	.	.	.	.	.	.	.	.	.	.	.	.	.
=45	=45	=45	=45	=45	=45	=45	=45	=45	=45	=45	=45	=45	=45	=45	=45	=45	=45	=45	=45	=45	=45	=45	=45	=45	=45	=45	=45	=45	=45	=45	=45	=45	=45	=45	=45	=45
*	*	*	*	*	*	*	*	*	*	*	*	*	*	*	*	*	*	*	*	*	*	*	*	*	*	*	*	*	*	*	*^	*	*	*	*	*
!	!	!	!	!	!	!	!	!	!	!	!	!	!	!	!	!	!	!LO:TX:t=P:problem=mixed beam	!	!LO:TX:t=cres-:problem=dynamics with extention lines	!LO:HP:t=cres-:ext=cd	!	!	!	!	!	!	!	!	!	!	!	!	!	!	!	!
2C/	.	8C\L	.	(4d\])	.	.	4r	.	.	4g\	no-	.	2ee\	o-	.	8C/L	.	(8d^</L	.	(4ee^<\	<	2r	.	2r	.	2e^</	2rc	.	2r	.	4r	2r	.	4dd\]	.	2r	.
!	!LO:HP:t=cres.	!	!LO:HP:b:t=cres.	!	!	!	!	!	!	!	!	!	!	!	!LO:HP:t=cres.	!	!	!	!	!	!	!	!	!	!	!	!	!	!	!	!	!	!	!	!	!	!
.	<	8A\	<	.	.	.	.	.	.	.	.	.	.	.	<	8A/	.	8e/)	.	.	.	.	.	.	.	.	.	.	.	.	.	.	.	.	.	.	.
.	.	8c\	.	8c\L	.	.	([4e^\	o-	.	4g\	-bis	.	.	.	.	8c/	.	8a/	.	8.a\L)	.	.	.	.	.	.	.	.	.	.	(<[4ee^</	.	.	8cc\L	.	.	.
!	!	!	!	!	!	!	!	!	!	!	!	!	!	!	!	!	!	!LO:TX:t=P:problem=skreślona nuta	!	!	!	!	!	!	!	!	!	!	!	!	!	!	!	!	!	!	!
.	.	8A\J	.	8B\J)	.	.	.	.	.	.	.	.	.	.	.	8A/J	.	8ee\J	.	.	.	.	.	.	.	.	.	.	.	.	.	.	.	8b\J)	.	.	.
.	.	.	.	.	.	.	.	.	.	.	.	.	.	.	.	.	.	.	.	16ee\Jk	.	.	.	.	.	.	.	.	.	.	.	.	.	.	.	.	.
=46	=46	=46	=46	=46	=46	=46	=46	=46	=46	=46	=46	=46	=46	=46	=46	=46	=46	=46	=46	=46	=46	=46	=46	=46	=46	=46	=46	=46	=46	=46	=46	=46	=46	=46	=46	=46	=46
*	*	*	*	*	*	*	*	*	*	*	*	*	*	*	*	*	*	*	*	*	*	*	*	*	*	*	*	*	*	*	*	*	*	*	*	*^	*
2D/	.	8D\L	.	4A\	-no-	.	4e\]	.	.	4r	.	.	2ff#\	-ra	.	8D/L	.	(8ee^<\L	.	(4ff#^<\	.	2r	.	2r	.	2f#^</	2rc	.	2r	.	4ee/]	2r	.	4a\	.	4r	4ryy	.
.	.	8A\	.	.	.	.	.	.	.	.	.	.	.	.	.	8A/	.	8a\)	.	.	.	.	.	.	.	.	.	.	.	.	.	.	.	.	.	.	.	.
!	!	!	!	!	!	!	!	!	!	!LO:TX:t=P:problem=brak początku łuku	!	!	!	!	!	!	!	!	!	!	!	!	!	!	!	!	!	!	!	!	!	!	!	!	!	!	!	!
.	.	8d\	.	4D\	-rum	.	8d\L	.	.	([4f#^\	o-	.	.	.	.	8d/	.	8dd\	.	8.dd\L)	[	.	.	.	.	.	.	.	.	.	8dd/L	.	.	4r	.	[4ff#^/	[>4ff#\	.
.	.	8A\J	.	.	.	.	8c\J)	.	.	.	.	.	.	.	.	8B/J	.	8cc\J	.	.	.	.	.	.	.	.	.	.	.	.	8cc/J)	.	.	.	.	.	.	.
.	.	.	.	.	.	.	.	.	.	.	.	.	.	.	.	.	.	.	.	16ff#\Jk	.	.	.	.	.	.	.	.	.	.	.	.	.	.	.	.	.	.
*	*	*	*	*	*	*	*	*	*	*	*	*	*	*	*	*	*	*	*	*	*	*	*	*	*	*	*	*	*	*	*v	*v	*	*	*	*	*	*
!!LO:PB:g=original
=47	=47	=47	=47	=47	=47	=47	=47	=47	=47	=47	=47	=47	=47	=47	=47	=47	=47	=47	=47	=47	=47	=47	=47	=47	=47	=47	=47	=47	=47	=47	=47	=47	=47	=47	=47	=47	=47
!	!	!	!	!	!	!LO:DY:a	!	!	!LO:DY:a	!LO:TX:b:t=P:problem=koniec łuku na dole	!	!	!	!	!	!	!	!LO:TX:a:t=v. 2.	!	!LO:TX:a:t=v. 1.	!	!	!	!	!	!	!	!	!	!	!	!	!	!	!	!	!
2E\	.	8E\L	.	2E\	o-	.	2B\	-ra	.	4f#\]	.	.	(2gg\	o-	.	8E/L	.	(8ff#\L	.	4gg\	.	2r	.	2r	.	2g/	2rc	.	2r	.	(>8.b/L	.	(2gg\	<	(4ff#/]	4ff#\]	.
.	.	8G\	.	.	.	.	.	.	.	.	.	.	.	.	.	8G/	.	8b\	.	.	.	.	.	.	.	.	.	.	.	.	.	.	.	.	.	.	.
.	.	.	.	.	.	<	.	.	<	.	.	.	.	.	.	.	.	.	.	.	.	.	.	.	.	.	.	.	.	.	16dd/Jk	.	.	.	.	.	.
!	!	!	!	!	!	!	!	!	!	!	!	!	!	!	!LO:HP:b	!	!	!	!	!	!	!	!	!	!	!	!	!	!	!	!	!	!	!	!	!	!
.	.	8B\	.	.	.	.	.	.	.	8e\L	.	<	.	.	<	8B/	.	8ee\	.	8.ee\L	<	.	.	.	.	.	.	.	.	.	4gg/	.	.	.	8ee/L	8ee\L	.
.	.	8G\J	.	.	.	.	.	.	.	8e-X\J)	.	.	.	.	.	8G/J	.	8ee-X\J)	.	.	.	.	.	.	.	.	.	.	.	.	.	.	.	.	8ee-X/J	8ee-\J	.
.	.	.	.	.	.	.	.	.	.	.	.	.	.	.	.	.	.	.	.	16gg\Jk	.	.	.	.	.	.	.	.	.	.	.	.	.	.	.	.	.
=48	=48	=48	=48	=48	=48	=48	=48	=48	=48	=48	=48	=48	=48	=48	=48	=48	=48	=48	=48	=48	=48	=48	=48	=48	=48	=48	=48	=48	=48	=48	=48	=48	=48	=48	=48	=48	=48
*	*	*	*	*	*	*	*	*	*	*	*	*	*	*	*	*	*	*tremolo	*	*	*	*	*	*	*	*	*	*	*	*	*	*	*	*	*	*	*
!	!	!	!	!	!	!	!	!	!	!	!	!	!	!	!	!	!	!LO:TX:t=P:problem=mixed beam	!	!	!	!	!	!	!	!	!	!	!	!	!	!	!	!	!	!	!
8F#\	.	8F#\L	.	2F#\	-ra!	.	[2d\	pro	[	4d\	-ra	.	4dd\)	.	.	8F#/L	.	(>8dd/L	.	8.aa\L	.	2r	.	2r	.	2a/	[2d\	<	2r	.	2aa/	.	2aa\)	.	8dd/)	8dd\	.
8r	.	8A\	.	.	.	[	.	.	.	.	.	.	.	.	.	8A/	.	8d\	.	.	.	.	.	.	.	.	.	.	.	.	.	.	.	.	8r	8ryy	.
.	.	.	.	.	.	.	.	.	.	.	.	.	.	.	.	.	.	.	.	16a\K	.	.	.	.	.	.	.	.	.	.	.	.	.	.	.	.	.
8D\	.	8D\J	.	.	.	.	.	.	.	4a\	pro	[	4cc\	-ra	[	8d/J	.	8dd/	.	8.dd\	.	.	.	.	.	.	.	.	.	.	.	.	.	[	4r	4ryy	.
8r	.	8ryy	.	.	.	.	.	.	.	.	.	.	.	.	.	8r	.	8d\J)	.	.	.	.	.	.	.	.	.	.	.	.	.	.	.	.	.	.	.
.	.	.	.	.	.	.	.	.	.	.	.	.	.	.	.	.	.	.	.	16aa\Jk	[	.	.	.	.	.	.	[[	.	.	.	.	.	.	.	.	f
*	*	*	*	*	*	*	*	*	*	*	*	*	*	*	*	*	*	*Xtremolo	*	*	*	*	*	*	*	*	*	*	*	*	*	*	*	*	*	*	*
=49	=49	=49	=49	=49	=49	=49	=49	=49	=49	=49	=49	=49	=49	=49	=49	=49	=49	=49	=49	=49	=49	=49	=49	=49	=49	=49	=49	=49	=49	=49	=49	=49	=49	=49	=49	=49	=49
*	*	*	*	*	*	*	*	*	*	*	*	*	*	*	*	*	*	*	*	*	*	*	*	*	*	*	*	*	*	*	*^	*	*	*	*	*	*
!	!	!	!LO:DY:b	!	!	!LO:DY:rj:b	!	!	!LO:DY:rj:b	!	!	!LO:DY:rj:b	!	!	!LO:DY:rj:b	!LO:TX:b:t=arco.	!LO:DY:rj	!	!LO:DY:rj	!	!LO:DY:rj	!	!	!	!	!	!	!	!	!	!	!	!LO:DY:rj	!	!LO:DY:rj	!	!	!
(2G\	f	(2G (2GG/	f	2G\	o-	f	2d\]	.	f	(4a\	no-	f	2b\	o-	f	(8B\L	f	(8B/L	f	(8.aa\L	f	2r	.	2r	.	[2g/	2d\]	f >	(2B\	f	(4.bb/)	(2dd\	f	(4.bb\	f	(4.bb/	4.bb\	>
!	!	!	!	!	!	!	!	!	!LO:HP:b	!	!	!LO:HP:b	!	!	!LO:HP:b	!	!	!	!	!	!	!	!	!	!	!	!	!	!	!	!	!	!	!	!	!	!	!
.	.	.	.	.	.	>	.	.	>	.	.	>	.	.	>	8d\	>	8d/	.	.	.	.	.	.	.	.	.	.	.	.	.	.	.	.	.	.	.	.
.	.	.	.	.	.	.	.	.	.	.	.	.	.	.	.	.	.	.	.	16gg\K)	.	.	.	.	.	.	.	.	.	.	.	.	.	.	>	.	.	.
!	!	!	!LO:HP:b	!	!	!	!	!	!	!	!	!	!	!	!	!	!	!	!	!	!	!	!	!	!	!	!	!	!	!	!	!	!	!	!	!	!	!
.	>	.	>	.	.	.	.	.	.	4g\)	.	.	.	.	.	8g\	.	8g/	.	8.b\	>	.	.	.	.	.	.	.	.	.	.	.	.	.	.	.	.	.
.	.	.	.	.	.	.	.	.	.	.	.	.	.	.	.	8d\J)	.	8d/J)	>	.	.	.	.	.	.	.	.	.	.	.	8gg/	.	.	8gg\	.	8gg/	8gg\	.
.	.	.	.	.	.	.	.	.	.	.	.	.	.	.	.	.	.	.	.	16dd\Jk	.	.	.	.	.	.	.	.	.	.	.	.	.	.	.	.	.	.
=50	=50	=50	=50	=50	=50	=50	=50	=50	=50	=50	=50	=50	=50	=50	=50	=50	=50	=50	=50	=50	=50	=50	=50	=50	=50	=50	=50	=50	=50	=50	=50	=50	=50	=50	=50	=50	=50	=50
2C\)	.	2C/))	.	4.C/	-ra	.	4c\	no-	.	4g\	-bis	.	4ee\	-ra	.	8e\L	.	(8e/L	.	(8.dd\L	.	2r	.	2r	.	2g/]	2e\	.	2c\)	.	4.ee/	4.cc\	.	4.ee\	.	4.ee/	4.ee\	.
.	.	.	.	.	.	.	.	.	.	.	.	.	.	.	.	8g\	]	8g/	]	.	.	.	.	.	.	.	.	.	.	.	.	.	.	.	.	.	.	.
.	.	.	.	.	.	.	.	.	.	.	.	.	.	.	.	.	.	.	.	16cc\K)	]	.	.	.	.	.	.	.	.	.	.	.	.	.	.	.	.	.
.	]	.	]	.	.	]	4e\	-bis,	]	4a\	pro	.	4cc\	pro	]	8e\	.	8e/	.	8.e\	.	.	.	.	.	.	.	.	.	.	.	.	.	.	.	.	.	.
.	.	.	.	8C/	pro	.	.	.	.	.	.	.	.	.	.	8c\J	.	8c/J)	.	.	.	.	.	.	.	.	.	]	.	.	8cc/)	8a\)	.	8cc\)	]	8cc/)	8cc\	]
.	.	.	.	.	.	.	.	.	.	.	.	]	.	.	.	.	.	.	.	16a\Jk	.	.	.	.	.	.	.	.	.	.	.	.	.	.	.	.	.	.
*	*	*	*	*	*	*	*	*	*	*	*	*	*	*	*	*	*	*	*	*	*	*	*	*	*	*	*	*	*	*	*	*	*	*	*	*v	*v	*
=51	=51	=51	=51	=51	=51	=51	=51	=51	=51	=51	=51	=51	=51	=51	=51	=51	=51	=51	=51	=51	=51	=51	=51	=51	=51	=51	=51	=51	=51	=51	=51	=51	=51	=51	=51	=51	=51
!	!	!	!	!	!	!	!LO:TX:a:i:t=tutti	!	!	!	!	!	!	!	!	!	!	!	!	!	!	!	!	!	!	!	!	!	!	!	!	!	!	!	!	!	!
4D\	.	2D\	.	[2D\	no-	.	[2d\	o-	.	(2g\	no-	.	2b\	no-	.	(8B\L	.	(8B/L	.	(8g\L	.	2r	.	2r	.	[2d/	4d\	p	4d\	.	(4b/	(2g\	.	(4b\	.	(4b\	.
.	.	.	.	.	.	.	.	.	.	.	.	.	.	.	.	8d\	.	8d/	.	8b\	.	.	.	.	.	.	.	.	.	.	.	.	.	.	.	.	.
4r	.	.	.	.	.	.	.	.	.	.	.	.	.	.	.	8g\	.	8g/	.	8dd\	.	.	.	.	.	.	4rc	.	4r	.	8dd/L	.	.	8dd\L	.	8dd\L	.
.	.	.	.	.	.	.	.	.	.	.	.	.	.	.	.	8b\J	.	8b/J)	.	8gg\J)	.	.	.	.	.	.	.	.	.	.	8gg/J)	.	.	8gg\J)	.	8gg\J	.
=52	=52	=52	=52	=52	=52	=52	=52	=52	=52	=52	=52	=52	=52	=52	=52	=52	=52	=52	=52	=52	=52	=52	=52	=52	=52	=52	=52	=52	=52	=52	=52	=52	=52	=52	=52	=52	=52
4D\	.	4D\	.	2D\]	.	.	2d\_	.	.	2f#\)	.	.	4a\	-bis.	.	8a\L	.	(8a/L	.	8.ff#\L	.	2r	.	2r	.	2d/]	2rc	.	2r	.	8.gg/L	4a\)	.	8.ff#\L	.	4dd\)	.
.	.	.	.	.	.	.	.	.	.	.	.	.	.	.	.	8d\J)	.	8d/	.	.	.	.	.	.	.	.	.	.	.	.	.	.	.	.	.	.	.
.	.	.	.	.	.	.	.	.	.	.	.	.	.	.	.	.	.	.	.	16ee\Jk	.	.	.	.	.	.	.	.	.	.	16ee/K	.	.	16ee\Jk	.	.	.
4r	.	4r	.	.	.	.	.	.	.	.	.	.	8r	.	p	4r	.	8dd/	.	(8dd\L	.	.	.	.	.	.	.	.	.	.	8.dd/	4r	.	8.dd\L	.	4r	.
!	!	!	!	!	!	!	!	!	!	!	!	!	!LO:TX:a:i:t=tutti.	!	!LO:DY:a	!	!	!	!	!	!	!	!	!	!	!	!	!	!	!	!	!	!	!	!	!	!
.	.	.	.	.	.	.	.	.	.	.	.	.	8dd\	Re-	.	.	.	8d/J)	.	8ddd\J)	.	.	.	.	.	.	.	.	.	.	.	.	.	.	.	.	.
!	!	!	!	!	!	!	!	!	!	!	!	!	!	!	!	!LO:TX:b:t=pizzi.	!	!	!	!	!	!	!	!	!	!	!	!	!	!	!	!	!	!	!	!	!
.	.	.	.	.	.	.	.	.	.	.	.	.	.	.	.	.	.	.	.	.	.	.	.	.	.	.	.	.	.	.	16cc/Jk	.	.	16cc\Jk	.	.	.
*	*	*	*	*	*	*	*	*	*	*	*	*	*	*	*	*	*	*	*	*	*	*	*	*	*	*	*	*	*	*	*v	*v	*	*	*	*	*
=53	=53	=53	=53	=53	=53	=53	=53	=53	=53	=53	=53	=53	=53	=53	=53	=53	=53	=53	=53	=53	=53	=53	=53	=53	=53	=53	=53	=53	=53	=53	=53	=53	=53	=53	=53	=53
*	*	*	*	*	*	*	*	*	*	*	*	*	*	*	*	*	*	*	*	*	*	*	*	*	*	*	*	*	*	*	*	*	*	*	*^	*
*	*	*	*	*	*	*	*	*	*	*	*	*	*	*	*	*	*	*tremolo	*	*	*	*	*	*	*	*	*	*	*	*	*	*	*	*	*	*	*
!	!LO:DY:rj:t=p.	!LO:TX:b:i:t=pizzi.	!	!	!	!	!	!	!	!	!	!	!	!	!	!	!	!	!	!	!LO:DY:t=p.	!	!	!	!	!	!	!LO:DY:rj	!	!LO:DY:rj	!	!	!	!	!	!	!
[2GG/	p	8B\L	.	4GG/	-bis.	.	2d\_	.	.	4d\	-bis.	.	4dd\	-gi-	.	8B/L	.	(8b/L	.	(4ddd\	p	2r	.	2r	.	2d/	[2D\	p	2B\	p	4b/	p	(2b\	p	(4ddd\	2r	p
!	!	!	!	!	!	!	!	!	!	!	!	!	!	!	!	!	!	!	!	!LO:TX:b:t=dolce	!	!	!	!	!	!	!	!	!	!	!	!	!	!	!	!	!
.	.	8D\	.	.	.	.	.	.	.	.	.	.	.	.	.	8D/	.	8d/	.	.	.	.	.	.	.	.	.	.	.	.	.	.	.	.	.	.	.
!	!	!	!	!	!	!	!	!	!	!	!	!	!	!	!	!	!	!	!	!	!	!	!	!	!	!	!	!	!	!	!	!	!	!	!LO:TX:b:i:t=dolce	!	!
.	.	8B\	.	4r	.	.	.	.	.	4r	.	.	4g\	-na	.	8B/	.	8b/	.	4gg\	.	.	.	.	.	.	.	.	.	.	4g/	.	.	.	4gg\	.	.
.	.	8D\J	.	.	.	.	.	.	.	.	.	.	.	.	.	8D/J	.	8d/J)	.	.	.	.	.	.	.	.	.	.	.	.	.	.	.	.	.	.	.
=54	=54	=54	=54	=54	=54	=54	=54	=54	=54	=54	=54	=54	=54	=54	=54	=54	=54	=54	=54	=54	=54	=54	=54	=54	=54	=54	=54	=54	=54	=54	=54	=54	=54	=54	=54	=54	=54
*	*	*	*	*	*	*	*	*	*	*	*	*	*	*	*	*tremolo	*	*	*	*	*	*	*	*	*	*	*	*	*	*	*	*	*	*	*	*	*
2GG^/_	.	8c\L	.	4r	.	.	2d\_	.	.	2r	.	.	8.a\L	an-	.	8c/L	.	(8a/L	.	8.aa\L	.	2r	.	2r	.	2f#/	2D\_	.	2c\	.	8.a/L	.	2a\	.	8.aa\L	2rc	.
.	.	8D\	.	.	.	.	.	.	.	.	.	.	.	.	.	8D/	.	8d/	.	.	.	.	.	.	.	.	.	.	.	.	.	.	.	.	.	.	.
.	.	.	.	.	.	.	.	.	.	.	.	.	16f#\Jk	.	.	.	.	.	.	16ff#\Jk	.	.	.	.	.	.	.	.	.	.	16f#/Jk	.	.	.	16ff#\Jk	.	.
.	.	8c\	.	8r	.	p	.	.	.	.	.	.	4d/	-ge-	.	8c/	.	8a/	.	4dd\)	.	.	.	.	.	.	.	.	.	.	4d/	.	.	.	4dd\	.	.
!	!	!	!	!LO:TX:a:i:t=tutti	!	!	!	!	!	!	!	!	!	!	!	!	!	!	!	!	!	!	!	!	!	!	!	!	!	!	!	!	!	!	!	!	!
.	.	8D\J	.	8D\	Re-	.	.	.	.	.	.	.	.	.	.	8D/J	.	8d/J)	.	.	.	.	.	.	.	.	.	.	.	.	.	.	.	.	.	.	.
*	*	*	*	*	*	*	*	*	*	*	*	*	*	*	*	*Xtremolo	*	*	*	*	*	*	*	*	*	*	*	*	*	*	*	*	*	*	*	*	*
=55	=55	=55	=55	=55	=55	=55	=55	=55	=55	=55	=55	=55	=55	=55	=55	=55	=55	=55	=55	=55	=55	=55	=55	=55	=55	=55	=55	=55	=55	=55	=55	=55	=55	=55	=55	=55	=55
!	!	!	!	!	!	!	!	!	!	!	!	!	!	!	!	!	!	!	!	!	!	!	!	!	!	!	!	!	!LO:TX:t=P:problem=skreślona nuta	!	!	!	!	!	!	!	!
2GG^/_	.	8B\L	.	4D\	-gi-	.	2d\_	.	.	2r	.	.	2d/	-lo-	.	8B/L	.	(8g/L	.	(4gg\	.	2r	.	2r	.	[2d/	2D\_	.	(4B\	.	4g/	.	2g/	.	4gg\	2rc	.
.	.	8D\	.	.	.	.	.	.	.	.	.	.	.	.	.	8D/	.	8d/	.	.	.	.	.	.	.	.	.	.	.	.	.	.	.	.	.	.	.
.	.	8G\	.	4G\	-na	.	.	.	.	.	.	.	.	.	.	8G/	.	8g/	.	8.b\L	.	.	.	.	.	.	.	.	4G\	.	8.b/L	.	.	.	8.b\L	.	.
.	.	8D\J	.	.	.	.	.	.	.	.	.	.	.	.	.	8D/J	.	8d/J)	.	.	.	.	.	.	.	.	.	.	.	.	.	.	.	.	.	.	.
.	.	.	.	.	.	.	.	.	.	.	.	.	.	.	.	.	.	.	.	16ee\Jk)	.	.	.	.	.	.	.	.	.	.	16ee/Jk	.	.	.	16ee\Jk	.	.
*	*	*	*	*	*	*	*	*	*	*	*	*	*	*	*	*	*	*Xtremolo	*	*	*	*	*	*	*	*	*	*	*	*	*	*	*	*	*	*	*
=56	=56	=56	=56	=56	=56	=56	=56	=56	=56	=56	=56	=56	=56	=56	=56	=56	=56	=56	=56	=56	=56	=56	=56	=56	=56	=56	=56	=56	=56	=56	=56	=56	=56	=56	=56	=56	=56
!	!	!	!	!	!	!	!	!	!	!	!	!	!	!	!	!	!	!	!	!	!	!	!	!	!	!LO:TX:t=P:problem=brak początku ligatury	!	!	!	!	!	!	!	!	!	!	!
2GG^/]	.	8F#\L	.	8.F#\L	Pa-	.	2d\_	.	.	2r	.	.	4d/	-rum	.	8F#/L	.	(8a/L	.	(4dd\	.	2ryy	.	2ryy	.	2d/_	2D\_	.	4F#\	.	[2dd/	.	4a/	.	2dd\)	2rc	.
.	.	8D\	.	.	.	.	.	.	.	.	.	.	.	.	.	8D/	.	8d/	.	.	.	.	.	.	.	.	.	.	.	.	.	.	.	.	.	.	.
.	.	.	.	16A\Jk	-tri-	.	.	.	.	.	.	.	.	.	.	.	.	.	.	.	.	.	.	.	.	.	.	.	.	.	.	.	.	.	.	.	.
.	.	8A\	.	4d\	-ar-	.	.	.	.	.	.	.	8r	.	.	8A/	.	8cc/	.	[4ddd\)	.	.	.	.	.	.	.	.	4A\)	.	.	.	4cc/)	.	.	.	.
.	.	8D\J	.	.	.	.	.	.	.	.	.	.	8dd\	Re-	.	8D/J	.	8d/J)	.	.	.	.	.	.	.	.	.	.	.	.	.	.	.	.	.	.	.
!!LO:PB:g=original
=57	=57	=57	=57	=57	=57	=57	=57	=57	=57	=57	=57	=57	=57	=57	=57	=57	=57	=57	=57	=57	=57	=57	=57	=57	=57	=57	=57	=57	=57	=57	=57	=57	=57	=57	=57	=57	=57
*	*	*	*	*	*	*	*	*	*	*	*	*	*	*	*	*	*	*	*	*	*	*	*	*	*	*	*	*	*	*	*^	*	*	*	*	*	*
*	*	*	*	*	*	*	*	*	*	*	*	*	*	*	*	*tremolo	*	*tremolo	*	*	*	*	*	*	*	*	*	*	*	*	*	*	*	*	*	*	*	*
!	!	!	!	!	!	!	!	!	!	!LO:TX:a:i:t=tutti	!	!	!	!	!	!	!	!	!	!LO:TX:t=P:problem=brak zakończenia ligatury	!	!	!	!	!	!	!	!	!	!	!	!	!	!	!	!	!	!
2GG/	.	8B\L	.	4B\	-cha-	.	4d\]	-ra!	.	[2d\	o-	.	4dd\	-gi-	.	8B/L	.	(8b/L	.	4ddd\]	.	2r	.	2r	.	2d/_	2D\_	.	(2B\	.	(4dd/]	2rc	.	(2b\	.	(4ddd\	2r	.
.	.	8D\	.	.	.	.	.	.	.	.	.	.	.	.	.	8D/	.	8d/	.	.	.	.	.	.	.	.	.	.	.	.	.	.	.	.	.	.	.	.
.	.	8B\	.	8G\	-rum	.	4r	.	.	.	.	.	4g\	-na	.	8B/	.	8b/	.	4gg\	.	.	.	.	.	.	.	.	.	.	4g/	.	.	.	.	4gg\	.	.
.	.	8D\J	.	8r	.	.	.	.	.	.	.	.	.	.	.	8D/J	.	8d/J)	.	.	.	.	.	.	.	.	.	.	.	.	.	.	.	.	.	.	.	.
=58	=58	=58	=58	=58	=58	=58	=58	=58	=58	=58	=58	=58	=58	=58	=58	=58	=58	=58	=58	=58	=58	=58	=58	=58	=58	=58	=58	=58	=58	=58	=58	=58	=58	=58	=58	=58	=58	=58
*	*	*tremolo	*	*	*	*	*	*	*	*	*	*	*	*	*	*	*	*	*	*	*	*	*	*	*	*	*	*	*	*	*	*	*	*	*	*	*	*
2GG/	.	8B\L	.	4r	.	.	2r	.	.	2d\_	.	.	8.a\L	pro-	.	8c/L	.	(8a/L	.	8.aa\L	.	2r	.	2r	.	2d/_	2D\]	.	2c\	.	8.a/L	2rc	.	2a\	.	8.aa\L	2r	.
.	.	8D\	.	.	.	.	.	.	.	.	.	.	.	.	.	8D/	.	8d/	.	.	.	.	.	.	.	.	.	.	.	.	.	.	.	.	.	.	.	.
.	.	.	.	.	.	.	.	.	.	.	.	.	16f#\Jk	.	.	.	.	.	.	16ff#\Jk	.	.	.	.	.	.	.	.	.	.	16f#/Jk	.	.	.	.	16ff#\Jk	.	.
.	.	8B\	.	8r	.	.	.	.	.	.	.	.	4d/	-phe-	.	8c/	.	8a/	.	4dd\	.	.	.	.	.	.	.	.	.	.	4d/)	.	.	.	.	4dd\)	.	.
.	.	8D\J	.	8D\	Re-	.	.	.	.	.	.	.	.	.	.	8D/J	.	8d/J)	.	.	.	.	.	.	.	.	.	.	.	.	.	.	.	.	.	.	.	.
*	*	*Xtremolo	*	*	*	*	*	*	*	*	*	*	*	*	*	*Xtremolo	*	*	*	*	*	*	*	*	*	*	*	*	*	*	*	*	*	*	*	*	*	*
=59	=59	=59	=59	=59	=59	=59	=59	=59	=59	=59	=59	=59	=59	=59	=59	=59	=59	=59	=59	=59	=59	=59	=59	=59	=59	=59	=59	=59	=59	=59	=59	=59	=59	=59	=59	=59	=59	=59
*	*	*	*	*	*	*	*	*	*	*	*	*	*	*	*	*	*	*	*	*	*	*^	*	*	*	*	*	*	*	*	*	*	*	*	*	*	*	*
!	!	!	!	!	!	!	!	!	!	!	!	!	!	!	!	!	!	!	!	!	!	!	!	!LO:DY:t=pp.	!	!	!	!	!	!	!	!	!	!	!	!	!	!	!
(2GG/	.	8B\L	.	4D\	-gi-	.	2r	.	.	2d\_	.	.	(2d/	-ta-	.	8B/L	.	(8g/L	.	4gg\	.	2r	(2GG/	pp	2r	.	2d/_	[2D\	.	2B\	.	(4g/	2r	.	2g/	.	(4gg\	2r	.
.	.	8D\	.	.	.	.	.	.	.	.	.	.	.	.	.	8D/	.	8d/	.	.	.	.	.	.	.	.	.	.	.	.	.	.	.	.	.	.	.	.	.
.	.	8G\	.	4G\	-na	.	.	.	.	.	.	.	.	.	.	8G/	.	8g/	.	8.b\L	.	.	.	.	.	.	.	.	.	.	.	8.b/L	.	.	.	.	8.bb\L	.	.
.	.	8D\J	.	.	.	.	.	.	.	.	.	.	.	.	.	8D/J	.	8d/J)	.	.	.	.	.	.	.	.	.	.	.	.	.	.	.	.	.	.	.	.	.
.	.	.	.	.	.	.	.	.	.	.	.	.	.	.	.	.	.	.	.	16ee\Jk	.	.	.	.	.	.	.	.	.	.	.	16ee/Jk	.	.	.	.	16eee\Jk	.	.
*	*	*	*	*	*	*	*	*	*	*	*	*	*	*	*	*	*	*Xtremolo	*	*	*	*	*	*	*	*	*	*	*	*	*	*	*	*	*	*	*	*	*
=60	=60	=60	=60	=60	=60	=60	=60	=60	=60	=60	=60	=60	=60	=60	=60	=60	=60	=60	=60	=60	=60	=60	=60	=60	=60	=60	=60	=60	=60	=60	=60	=60	=60	=60	=60	=60	=60	=60	=60
!	!	!LO:TX:t=P:problem=skreślona nuta	!	!	!	!	!	!	!	!	!	!	!	!	!	!	!	!	!	!	!	!	!	!	!	!	!	!	!	!	!	!	!	!	!	!	!	!	!
4AA/	.	8A\L	.	8.F#\L	a-	.	2r	.	.	2d\]	.	.	2dd\)	.	.	8A/L	.	8f#/L	.	4dd\	.	2r	4AA/	.	2r	.	2d/]	4D\]	.	4A\	.	8dd/)	4r	.	8f#/)	.	4ddd\)	4r	.
.	.	8D\	.	.	.	.	.	.	.	.	.	.	.	.	.	8D/	.	8dd/	.	.	.	.	.	.	.	.	.	.	.	.	.	8r	.	.	8r	.	.	.	.
.	.	.	.	16A\Jk	.	.	.	.	.	.	.	.	.	.	.	.	.	.	.	.	.	.	.	.	.	.	.	.	.	.	.	.	.	.	.	.	.	.	.
*	*	*	*	*	*	*	*	*	*	*	*	*	*	*	*	*	*	*	*	*8va	*	*	*	*	*	*	*	*	*	*	*	*	*	*	*	*	*	*	*
4BB/	.	8G\	.	[4d^\	-po-	.	.	.	.	.	.	.	.	.	.	8B/	.	8g/	.	4ddd\	.	.	4BB/)	.	.	.	.	4rc	.	[<4G\)	.	4dd/	4dd\	.	[4dd\	.	4ddd/	[4ddd\	.
!	!	!	!	!	!	!	!	!	!	!	!	!	!	!	!	!LO:TX:t=cres-cendo.:problem=dynamics with extention lines	!LO:HP:t=cres-cendo.:ext=cd	!	!	!	!	!	!	!	!	!	!	!	!	!	!	!	!	!	!	!	!	!	!
.	.	8D\J	.	.	.	.	.	.	.	.	.	.	.	.	.	8D/J	<	8dd/J	.	.	.	.	.	.	.	.	.	.	.	.	.	.	.	.	.	.	.	.	.
*	*	*	*	*	*	*	*	*	*	*	*	*	*	*	*	*	*	*	*	*	*	*v	*v	*	*	*	*	*	*	*	*	*	*	*	*	*	*	*	*
=61	=61	=61	=61	=61	=61	=61	=61	=61	=61	=61	=61	=61	=61	=61	=61	=61	=61	=61	=61	=61	=61	=61	=61	=61	=61	=61	=61	=61	=61	=61	=61	=61	=61	=61	=61	=61	=61	=61
!	!	!	!	!	!	!	!	!	!	!	!	!	!	!	!	!	!	!	!	!	!	!	!LO:DY:t=p.	!	!	!	!	!	!LO:TX:t=crescendo.:problem=dynamics with extention lines	!LO:DY:t=crescendo:dur=6q	!	!	!	!	!	!	!	!
4C/)	.	8C\L	.	4d\]	.	.	4ryy	.	.	4e\	-ra	.	2ee\	.	.	8C/L	.	(8dd\L	.	2eee\	.	(2C\	p	2r	.	(2e/	2rc	.	4G\]	<	(2ee/	2ee\	.	4dd\]	.	(2eee/	(4ddd\]	.
.	.	8A\	.	.	.	.	.	.	.	.	.	.	.	.	.	8A/	.	8g\)	.	.	.	.	.	.	.	.	.	.	.	.	.	.	.	.	.	.	.	.
!LO:TX:t=crescendo.:problem=dynamics with extention lines	!LO:HP:a:t=crescendo.:ext=s	!	!	!	!	!	!	!	!	!	!	!	!	!	!	!	!	!LO:TX:t=cres-cen-do.:problem=dynamics with extention lines	!LO:HP:t=cres-cen-do.:ext=cd	!	!	!	!	!	!	!	!	!	!	!	!	!	!	!	!	!	!	!
(4C/	<	8c\	.	8c\L	-sto-	.	([4e^\	o-	.	4ryy	.	.	.	.	.	8c/	.	8.cc\	<	.	<	.	.	.	.	.	.	<	[4c\	.	.	.	.	8cc\L	.	.	8ccc\L	.
.	.	8A\J	.	8B\J	.	.	.	.	.	.	.	.	.	.	.	8A/J	.	.	.	.	.	.	.	.	.	.	.	.	.	.	.	.	.	[8ee\J	<	.	[8eee\J)	<
.	.	.	.	.	.	.	.	.	.	.	.	.	.	.	.	.	.	16ee\Jk	.	.	.	.	.	.	.	.	.	.	.	.	.	.	.	.	.	.	.	.
=62	=62	=62	=62	=62	=62	=62	=62	=62	=62	=62	=62	=62	=62	=62	=62	=62	=62	=62	=62	=62	=62	=62	=62	=62	=62	=62	=62	=62	=62	=62	=62	=62	=62	=62	=62	=62	=62	=62
!	!	!	!	!LO:TX:t=crescendo.:problem=dynamics with extention lines	!	!LO:HP:t=crescendo.:ext=s	!	!	!	!	!	!	!	!	!	!	!	!LO:TX:t=P:problem=mixed beam	!	!	!	!LO:TX:t=crescendo.:problem=dynamics with extention lines	!LO:HP:t=crescendo.:ext=s	!	!	!	!	!	!LO:TX:t=P:problem=skreślona nuta	!	!	!	!	!	!	!	!	!
4D\)	.	8D\L	.	4A\	-lo-	<	4e\]	.	.	4r	.	.	2ff#\	-rum	.	8D/L	.	(8ee\L	.	2fff#tt<\	.	2D\	<	2r	.	2f#/	2rc	.	4c\]	.	2ff#/	2ff#\	.	4ee\]	.	2fff#/	(4eee\]	.
.	.	8A\	.	.	.	.	.	.	.	.	.	.	.	.	.	8A/	.	8e/J)	.	.	.	.	.	.	.	.	.	.	.	.	.	.	.	.	.	.	.	.
!	!	!	!	!	!	!	!	!	!LO:DY:a	!	!	!	!	!	!	!	!	!LO:TX:t=P:problem=mixed beam	!	!	!	!	!	!	!	!	!	!	!	!	!	!	!	!	!	!	!	!
(4D\	.	8d\	.	4D\	-rum	.	8d\L	.	<	([4f#^\	o-	.	.	.	.	8d/	.	8.a/L	.	.	.	.	.	.	.	.	.	.	4A\	.	.	.	.	8dd\L	.	.	8ddd\L	.
.	.	8A\J	.	.	.	.	8c\J)	.	.	.	.	.	.	.	.	8A/J	.	.	.	.	.	.	.	.	.	.	.	.	.	.	.	.	.	[8ff#\J	.	.	[8fff#\J)	.
.	.	.	.	.	.	.	.	.	.	.	.	.	.	.	.	.	.	16ff#\Jk	.	.	.	.	.	.	.	.	.	.	.	.	.	.	.	.	.	.	.	.
.	.	.	.	.	.	.	.	.	.	.	.	.	.	.	.	.	.	.	.	16qqeee/LL	.	.	.	.	.	.	.	.	.	.	.	.	.	.	.	.	.	.
.	.	.	.	.	.	.	.	.	.	.	.	.	.	.	.	.	.	.	.	16qqfff#/JJ	.	.	.	.	.	.	.	.	.	.	.	.	.	.	.	.	.	.
=63	=63	=63	=63	=63	=63	=63	=63	=63	=63	=63	=63	=63	=63	=63	=63	=63	=63	=63	=63	=63	=63	=63	=63	=63	=63	=63	=63	=63	=63	=63	=63	=63	=63	=63	=63	=63	=63	=63
!	!	!	!	!	!	!	!	!	!	!	!	!	!	!	!	!	!	!	!	!	!	!	!	!	!	!	!	!	!LO:TX:t=P:problem=skreślona nuta	!	!	!	!	!	!	!	!	!
4E\)	.	8E\L	.	2E\	o-	.	2B\	-ra	.	4f#\]	.	.	2gg\	o-	<	8E/L	.	8.ff#\L	.	2ggg\	.	2E\	.	2r	.	2g/	2r	.	4G\	.	2gg/	2gg\	.	4ff#\]	.	2ggg/	(4fff#\]	.
.	.	8G\	.	.	.	.	.	.	.	.	.	.	.	.	.	8G/	.	.	.	.	.	.	.	.	.	.	.	.	.	.	.	.	.	.	.	.	.	.
.	.	.	.	.	.	.	.	.	.	.	.	.	.	.	.	.	.	16b\Jk	.	.	.	.	.	.	.	.	.	.	.	.	.	.	.	.	.	.	.	.
(4E\	.	8B\	.	.	.	.	.	.	.	8e\L	.	.	.	.	.	8B/	.	8dd\L	.	.	.	.	.	.	.	.	.	.	4B\	[[	.	.	.	8ee\L	.	.	8eee\L	.
!	!	!	!	!	!	!	!	!	!	!	!	!	!	!	!	!	!	!	!	!	!	!	!	!	!LO:DY:a	!	!	!	!	!	!	!	!	!	!	!	!	!
.	[	8G\J	.	.	.	.	.	.	.	8e-X\J	.	.	.	.	.	8G/J	[[	8aaJ 8ee-X\	.	.	.	.	[[	.	p	.	.	.	.	.	.	.	.	8ee-X\J	[[	.	8eee-X\J)	.
=64	=64	=64	=64	=64	=64	=64	=64	=64	=64	=64	=64	=64	=64	=64	=64	=64	=64	=64	=64	=64	=64	=64	=64	=64	=64	=64	=64	=64	=64	=64	=64	=64	=64	=64	=64	=64	=64	=64
*	*	*	*	*	*	*	*	*	*	*	*	*	*	*	*	*	*	*	*	*	*	*	*	*^	*	*	*	*	*	*	*	*	*	*	*	*	*	*
!	!	!	!	!	!	!	!	!	!	!	!	!	!LO:N:vis=1	!	!	!	!	!	!	!	!	!	!	!	!	!	!	!	!	!	!	!	!	!	!	!	!	!	!
8F#\)	.	8F#\L	.	2F#\	-ra	.	2d\	pro.	.	4d\)	-ra	.	2dd\	-ra	[[	8F#/L	.	8dd\L	.	2aaaT<\	.	2F#\)	.	2ee/	2r	.	2a/)	2d\	[	4A\	.	[2aa/)	2aa\	.	4dd\	.	4.ddd/	4.ddd\	[
!	!	!	!	!	!	!	!	!	!	!	!	!	!	!	!	!	!	!	!	!	!	!	!	!	!	!LO:HP:a	!	!	!	!	!	!	!	!	!	!	!	!	!
8r	.	8A\	.	.	.	.	.	.	.	.	.	.	.	.	.	8A/	.	8a\J	.	.	.	.	.	.	.	<	.	.	.	.	.	.	.	.	.	.	.	.	.
8D#X\	.	8D\J	.	.	.	.	.	.	.	4a\	pro	.	.	.	.	8d/J	.	8.dd\L	[	.	[	.	.	.	.	.	.	.	.	4r	.	.	.	.	4aa\	.	.	.	.
!	!	!	!	!	!	!	!	!	!	!	!	!	!	!	!	!	!	!	!	!	!	!	!	!	!LO:TX:b:t=in C.	!	!	!	!	!	!	!	!	!	!	!	!LO:TX:t=P:problem=skreślone nuty	!	!
8r	.	8r	.	.	.	[	.	.	[	.	.	.	.	.	.	8r	.	.	.	.	.	.	.	.	.	.	.	.	.	.	.	.	.	.	.	.	8fff#/)	8ryy	.
.	.	.	.	.	.	.	.	.	.	.	.	.	.	.	.	.	.	16aa\Jk	.	.	.	.	.	.	.	.	.	.	.	.	.	.	.	.	.	.	.	.	.
.	.	.	.	.	.	.	.	.	.	.	.	.	.	.	.	.	.	.	.	16qqggg/LL	.	.	.	.	.	.	.	.	.	.	.	.	.	.	.	.	.	.	.
!	!	!LO:TX:b:t=arco	!	!	!	!	!	!	!	!	!	!	!	!	!	!LO:TX:b:t=arco	!	!	!	!	!	!	!	!	!	!	!	!	!	!	!LO:DY:t=ff.	!	!	!	!	!	!	!	!
.	.	.	.	.	.	.	.	.	.	.	.	.	.	.	.	.	.	.	.	16qqaaa/JJ	.	.	.	.	.	[	.	.	ff	.	ff	.	.	.	.	.	.	.	.
=65	=65	=65	=65	=65	=65	=65	=65	=65	=65	=65	=65	=65	=65	=65	=65	=65	=65	=65	=65	=65	=65	=65	=65	=65	=65	=65	=65	=65	=65	=65	=65	=65	=65	=65	=65	=65	=65	=65	=65
!	!LO:DY:t=ff.	!	!LO:HP:b	!	!	!LO:DY:rj:b	!	!	!LO:DY:rj:b	!	!	!LO:DY:rj:b	!LO:TX:t=P:problem=skreślona nuta	!	!LO:DY:rj:b	!	!LO:DY:rj:t=ff.	!LO:TX:t=P:problem=diminuendolike accent	!LO:DY:rj	!	!LO:DY:rj:t=ff.	!	!LO:DY:rj	!	!	!LO:DY:rj:t=ff.	!	!	!	!	!	!	!	!LO:DY:rj:t=ff.	!	!LO:DY:rj:t=ff.	!LO:TX:t=P:problem=diminuendolike accent	!	!LO:DY:rj:t=ff.
4.GG/	ff	(8B\L	<	(4.G\	o-	ff	2d\	no-	ff	4a\	no-	ff	2dd\	o-	ff	(8B\L	ff <	(8.aa^<\L	ff	(4.bbb\	ff	(4.G\	ff	2ee/	2a\	ff	2d/	2d\	.	(8B\L	<	8.aa/L]	2dd\	ff	(4.bb\	ff	(8.aaa^/L	4bb\	ff
.	.	8d\J	.	.	.	.	.	.	.	.	.	.	.	.	.	8d\J	.	.	.	.	.	.	.	.	.	.	.	.	.	8d\J	.	.	.	.	.	.	.	.	.
.	.	.	.	.	.	.	.	.	.	.	.	.	.	.	.	.	.	16gg\Jk)	.	.	.	.	.	.	.	.	.	.	.	.	.	16gg/Jk	.	.	.	.	16ggg/Jk)	.	.
.	.	[4g\	[	.	.	.	.	.	.	4g\	.	.	.	.	.	[4g\	.	8.b\L	.	.	>	.	.	.	.	.	.	.	.	[4g\	.	8.b/L	.	.	.	.	8.bb/L	8.bb\L	.
8BB/	.	.	.	8BB/)	.	.	.	.	.	.	.	.	.	.	.	.	.	.	.	8ggg\	.	8BB/	.	.	.	.	.	.	.	.	[	.	.	.	8gg\)	.	.	.	.
.	.	.	.	.	.	.	.	.	.	.	.	.	.	.	.	.	.	16dd\Jk	.	.	.	.	.	.	.	.	.	.	.	.	.	16dd/Jk	.	.	.	.	16fff#/Jk	16fff#\Jk	.
=66	=66	=66	=66	=66	=66	=66	=66	=66	=66	=66	=66	=66	=66	=66	=66	=66	=66	=66	=66	=66	=66	=66	=66	=66	=66	=66	=66	=66	=66	=66	=66	=66	=66	=66	=66	=66	=66	=66	=66
!	!	!	!LO:HP:b	!	!	!	!	!	!	!	!	!	!	!	!	!	!	!	!	!	!	!	!	!	!	!	!	!	!	!	!	!	!	!	!	!	!LO:TX:t=P:problem=diminuendolike accent	!	!
4C/	.	8g\L]	>	4.C/	-ra	.	4c\	-bis	.	4g\	-bis,	.	4ee\	-ra	.	8g\L]	[	(8.dd^<\L	.	4.eee\	.	2C\)	.	4ff#/	4a\	.	4e/	4cX\	.	8g\L]	>	8.dd/L	2g\	.	(4.ee\	.	(8.ddd^/L	8.ddd\L	.
.	.	8e\	.	.	.	.	.	.	.	.	.	.	.	.	.	8e\	>	.	.	.	.	.	.	.	.	.	.	.	.	8e\	.	.	.	.	.	.	.	.	.
.	.	.	.	.	.	.	.	.	.	.	.	.	.	.	.	.	.	16cc\Jk)	.	.	.	.	.	.	.	.	.	.	.	.	.	16cc/Jk	.	.	.	.	16ccc/Jk)	16ccc\Jk	.
4C/	.	8c\)	]	.	.	.	4e\	pro	.	4a\	pro	.	4cc\	pro	.	8c\	.	8.e/L	.	.	.	.	.	4dd/	4a\	.	4e/	4c\	.	8c\	.	8.e/L	.	.	.	.	8.ee/L	8.ee\L	.
.	.	8A\J	.	8C/	pro	.	.	.	.	.	.	.	.	.	.	8A\J)	]]	.	.	8ccc\)	]	.	.	.	.	.	.	.	.	8A\J)	]	.	.	.	8cc\)	.	.	.	.
*	*	*	*	*	*	*	*	*	*	*	*	*	*	*	*	*	*	*	*	*X8va	*	*	*	*	*	*	*	*	*	*	*	*	*	*	*	*	*	*	*
.	.	.	.	.	.	.	.	.	.	.	.	.	.	.	.	.	.	16a/Jk	.	.	.	.	.	.	.	.	.	.	.	.	.	16a/Jk	.	.	.	.	16aa/Jk	16aa\Jk	.
*	*	*	*	*	*	*	*	*	*	*	*	*	*	*	*	*	*	*	*	*	*	*	*	*	*	*	*	*	*	*	*	*	*	*	*	*	*v	*v	*
!!LO:PB:g=original
=67	=67	=67	=67	=67	=67	=67	=67	=67	=67	=67	=67	=67	=67	=67	=67	=67	=67	=67	=67	=67	=67	=67	=67	=67	=67	=67	=67	=67	=67	=67	=67	=67	=67	=67	=67	=67	=67	=67
!	!	!	!	!	!	!	!	!	!	!	!	!	!	!	!	!	!	!	!	!LO:TX:a:t=loco	!	!	!	!	!	!	!	!	!	!	!	!	!	!	!	!	!	!
8D\	.	8B 8D\	.	(<2D/	no-	.	4d\	no-	.	4g\	no-	.	(2b\	no-	.	8B/L	.	(8g\L	.	4bbt\	.	8D\	.	8cc#/	8a\	.	8d/	8d\	.	8B\L	.	(2b/	(2g\	.	(4b/	.	(4bb\	.
8r	.	8r	.	.	.	.	.	.	.	.	.	.	.	.	.	8d/	.	8b\)	.	.	.	8r	.	8r	8ryy	.	8r	8ryy	.	8d\	.	.	.	.	.	.	.	.
8D\	.	8B 8D\	.	.	.	.	8.d\	-bis	.	8.g\	-bis	.	.	.	.	8d/	.	8b\	.	8.ddd\L	.	[4D\	.	[4ee/	4re	.	[4d [4D/	4ryy	.	8B\	.	.	.	.	8dd/L	.	8ddd\L	.
8r	.	8r	.	.	.	.	.	.	.	.	.	.	.	.	.	8B/J	.	8dd\J	.	.	.	.	.	.	.	.	.	.	.	8G\J	.	.	.	.	8gg/J	.	8bb\J)	.
.	.	.	.	.	.	.	16d\	Re-	.	16g\	Re-	.	.	.	.	.	.	.	.	16bb\Jk	.	.	.	.	.	.	.	.	.	.	.	.	.	.	.	.	.	.
*	*	*	*	*	*	*	*	*	*	*	*	*	*	*	*	*	*	*	*	*	*	*	*	*	*	*	*v	*v	*	*	*	*	*	*	*	*	*	*
=68	=68	=68	=68	=68	=68	=68	=68	=68	=68	=68	=68	=68	=68	=68	=68	=68	=68	=68	=68	=68	=68	=68	=68	=68	=68	=68	=68	=68	=68	=68	=68	=68	=68	=68	=68	=68	=68
8D\	.	8A 8D\	.	2d\)	.	.	8.d\	-gi-	.	8.f#\	-gi-	.	2a\)	.	.	(8d\L	.	(8dd\L	.	8.aa\L	.	8D\]	.	8ee/]	2re	.	8d] 8D/]	.	8D\	.	(4a/)	(4f#\)	.	4ff#/	.	(4aa\	.
8r	.	8r	.	.	.	.	.	.	.	.	.	.	.	.	.	8a\J)	.	8a\J)	.	.	.	8r	.	8r	.	.	8r	.	8r	.	.	.	.	.	.	.	.
.	.	.	.	.	.	.	16d\	-na	.	16f#\	-na	.	.	.	.	.	.	.	.	16ff#\K	.	.	.	.	.	.	.	.	.	.	.	.	.	.	.	.	.
8D\	.	8A 8D\	.	.	.	.	8.d\	vir-	.	8.f#\	vir-	.	.	.	.	8d\L	.	(8dd\L	.	8.aa\	.	8D\	.	8ee/	.	.	8d 8D/	.	8d\	.	8dd/)	8d\)	.	8dd/)	.	8ddd\)	.
8r	.	8r	.	.	.	.	.	.	.	.	.	.	.	.	.	8a\J	.	8a\J)	.	.	.	8r	.	8r	.	.	8r	.	8r	.	8r	8ryy	.	8r	.	8r	.
.	.	.	.	.	.	.	16d\	-gi-	.	16f#\	-gi-	.	.	.	.	.	.	.	.	16ddd\Jk	.	.	.	.	.	.	.	.	.	.	.	.	.	.	.	.	.
*	*	*	*	*	*	*	*	*	*	*	*	*	*	*	*	*	*	*	*	*	*	*	*	*v	*v	*	*	*	*	*	*v	*v	*	*	*	*	*
=69	=69	=69	=69	=69	=69	=69	=69	=69	=69	=69	=69	=69	=69	=69	=69	=69	=69	=69	=69	=69	=69	=69	=69	=69	=69	=69	=69	=69	=69	=69	=69	=69	=69	=69	=69
*	*	*^	*	*	*	*	*	*	*	*	*	*	*	*	*	*	*	*	*	*	*	*	*	*	*	*	*	*	*	*	*	*	*	*	*
!	!	!	!	!	!	!	!	!	!	!	!	!	!	!	!	!	!	!	!LO:TX:t=P:problem=mixed beam	!	!LO:TX:t=P:problem=mixed beam	!LO:DY:t=sf.	!	!LO:DY:rj:t=fff.	!	!LO:DY:rj	!	!LO:DY:rj:t=fff.	!	!LO:DY:rj:t=fff.	!	!LO:DY:rj:t=fff.	!LO:TX:t=P:problem=skreślona nuta	!LO:DY:rj:t=fff.	!	!LO:DY:rj:t=fff.
[2C#X/	fff	8C#X/	8C#\L	.	4c#X\	-bis	.	4e\	-num	.	4e\	-num.	.	4ee\	-bis	.	8c#X/L	.	8eeL 8a\	.	8aaL 8a'\	sf	[2C#X/	fff	4..a 4..A^/	fff	[2e [2A\	fff	[2c#X\	fff >	[2aa [>2ee\	fff	[2gg\	fff	[2ggg [>2eee\	fff
.	.	16r	16ryy	.	.	.	.	.	.	.	.	.	.	.	.	.	16r	.	16r	.	16r	.	.	.	.	.	.	.	.	.	.	>	.	>	.	.
!	!	!LO:TX:t=P:problem=skreślona nuta	!	!	!	!	!	!	!	!	!	!	!	!	!	!	!	!	!	!	!	!	!	!	!	!	!	!	!	!	!	!	!	!	!	!
.	>	16ryy	16GG\Jk	.	.	.	.	.	.	.	.	.	.	.	.	.	16G|/Jk	.	16G|/Jk	.	((<16G|/Jk	.	.	.	.	.	.	>	.	.	.	.	.	.	.	>
!	!	!LO:TX:t=P:problem=skreślona nuta	!	!	!	!	!	!	!	!	!	!	!	!	!	!	!	!	!	!	!	!	!	!	!	!	!	!	!	!	!	!	!	!	!	!
.	.	[4GG\	4ryy	.	8.r	.	.	8.ryy	.	.	8.r	.	.	8r	.	.	4G^/	.	4G^/	.	4G^/	.	.	.	.	.	.	.	.	.	.	.	.	.	.	.
.	.	.	.	.	.	.	.	.	.	.	.	.	.	8g\	Re-	.	.	.	.	.	.	.	.	.	.	.	.	.	.	.	.	.	.	.	.	.
.	.	.	.	.	16G\	Re-	.	16G/	Re-	.	16g\	Re-	.	.	.	.	.	.	.	.	.	.	.	.	16a 16A/	.	.	.	.	.	.	.	.	.	.	.
*	*	*v	*v	*	*	*	*	*	*	*	*	*	*	*	*	*	*	*	*	*	*	*	*	*	*	*	*	*	*	*	*	*	*	*	*	*
=70	=70	=70	=70	=70	=70	=70	=70	=70	=70	=70	=70	=70	=70	=70	=70	=70	=70	=70	=70	=70	=70	=70	=70	=70	=70	=70	=70	=70	=70	=70	=70	=70	=70	=70	=70
4C#/]	]	4GG\]	.	8.G\	-[gi-	.	8.G/	-[gi-	.	8.g\	-[gi-	.	8.g\	-gi-	.	2r	.	2r	.	4aa\))	.	4C#/]	.	8.aL 8.A/	.	4e] 4A\]	]	4c#\]	]	4aa] 4ee\]	]	4gg\]	]	4ggg] 4eee\]	.
.	.	.	.	16G\	-na	.	16G/	-na	.	16g\	-na	.	16g\	-na	.	.	.	.	.	.	.	.	.	16aJk 16A/	.	.	.	.	.	.	.	.	.	.	.
4r	.	4r	.	8.G\	Con-	.	8.G/	Con-	.	8.g\	Con-	.	8.g\	Con-	.	.	.	.	.	4r	.	4r	.	8.aL 8.A/	.	4r	.	4r	.	4r	.	4r	.	4r	]
.	.	.	.	16G\	-fe-	.	16G/	-fe-	.	16g\	-fe-	.	16g\	-fe-	.	.	.	.	.	.	.	.	.	16aJk 16A/	.	.	.	.	.	.	.	.	.	.	.
=71	=71	=71	=71	=71	=71	=71	=71	=71	=71	=71	=71	=71	=71	=71	=71	=71	=71	=71	=71	=71	=71	=71	=71	=71	=71	=71	=71	=71	=71	=71	=71	=71	=71	=71	=71
*	*	*^	*	*	*	*	*	*	*	*	*	*	*	*	*	*	*	*	*	*	*	*	*	*	*	*^	*	*	*	*	*	*	*	*	*
!	!	!	!	!	!LO:TX:t=P:problem=skreślona nuta	!	!	!	!	!	!	!	!	!LO:TX:t=P:problem=skreślona nuta	!	!	!	!LO:DY:rj	!LO:TX:t=P:problem=mixed beam	!LO:DY:rj:t=fff.	!LO:TX:t=P:problem=mixed beam	!LO:DY:rj	!	!LO:DY:rj	!	!	!	!	!LO:DY:rj	!	!LO:DY:rj	!	!LO:DY:rj	!LO:TX:t=P:problem=skreślona nuta	!LO:DY:rj	!	!LO:DY:rj:t=fff.
[2Cn/	fff	8Cn/	8Cn\L	.	4c\	-so-	.	4e\	-so-	.	4g\	-so-	.	4g\	-so-	.	8cn/L	fff	8ggL 8b-X\	fff	8bb-X\L	fff	[2Cn/	fff	4..a 4..A^/	.	[2e/	[>2e\	fff >	[2cn\	fff >	[2bb-X [2ee\	fff >	[2gg\	fff >	[2ggg [>2eee\	fff
.	.	16r	16ryy	.	.	.	.	.	.	.	.	.	.	.	.	.	16r	.	16r	.	16r	.	.	.	.	.	.	.	.	.	.	.	.	.	.	.	.
!	!	!LO:TX:t=P:problem=skreślona nuta	!	!	!	!	!	!	!	!	!	!	!	!	!	!	!	!	!	!	!	!	!	!	!	!	!	!	!	!	!	!	!	!	!	!	!
.	>	16ryy	16GG\Jk	.	.	.	.	.	.	.	.	.	.	.	.	.	16G|/Jk	.	16G|/Jk	.	16G/Jk	.	.	.	.	.	.	.	.	.	.	.	.	.	.	.	>
!	!	!LO:TX:t=P:problem=skreślona nuta	!	!	!	!	!	!	!	!	!	!	!	!	!	!	!	!	!	!	!LO:TX:t=P:problem=zbędny początek ligatury	!	!	!	!	!	!	!	!	!	!	!	!	!	!	!	!
.	.	4GG\	4ryy	.	8G\	-rum	.	8G/	-rum	.	8g\	-rum	.	8g\	-rum	.	4G^/	.	4G^/	.	4G^/	.	.	.	.	.	.	.	.	.	.	.	.	.	.	.	.
.	.	.	.	.	16r	.	.	16r	.	.	16r	.	.	16r	.	.	.	.	.	.	.	.	.	.	.	.	.	.	.	.	.	.	.	.	.	.	.
.	.	.	.	.	16G\	Re-	.	16G/	Re-	.	16g\	Re-	.	16g\	Re-	.	.	.	.	.	.	.	.	.	16a 16A/	.	.	.	.	.	.	.	.	.	.	.	.
*	*	*v	*v	*	*	*	*	*	*	*	*	*	*	*	*	*	*	*	*	*	*	*	*	*	*	*	*	*	*	*	*	*	*	*	*	*	*
=72	=72	=72	=72	=72	=72	=72	=72	=72	=72	=72	=72	=72	=72	=72	=72	=72	=72	=72	=72	=72	=72	=72	=72	=72	=72	=72	=72	=72	=72	=72	=72	=72	=72	=72	=72	=72
!	!	!	!	!	!	!	!	!	!	!	!	!	!	!	!	!	!	!	!	!	!	!	!	!	!	!	!	!	!	!	!	!	!LO:TX:t=P:problem=skreślona nuta	!	!	!
4C/]	]	2r	.	8.G\	-gi-	.	8.G/	-gi-	.	8.g\	-gi-	.	8.g\	-gi-	.	2r	.	2r	.	2r	.	4C/]	.	8.aL 8.A/	.	4e/]	4e\]	.	4c\]	]	4bb-] 4ee\]	]	4gg\]	]	4ggg] 4eee\]	.
.	.	.	.	16G\	-na	.	16G/	-na	.	16g\	-na	.	16g\	-na	.	.	.	.	.	.	.	.	.	16aJk 16A/	.	.	.	]	.	.	.	.	.	.	.	.
4r	.	.	.	8.G\	Con-	.	8.G/	Con-	.	8.g\	Con-	.	8.g\	cCon-	.	.	.	.	.	.	.	4r	.	8.aL 8.A/	.	4r	4ryy	.	4r	.	4r	.	4r	.	4r	]
.	.	.	.	16G\	-fe-	.	16G/	-fe-	.	16g\	-fe-	.	16g\	-fe-	.	.	.	.	.	.	.	.	.	16aJk 16A/	.	.	.	.	.	.	.	.	.	.	.	.
*	*	*	*	*	*	*	*	*	*	*	*	*	*	*	*	*	*	*	*	*	*	*	*	*	*	*v	*v	*	*	*	*	*	*	*	*	*
=73	=73	=73	=73	=73	=73	=73	=73	=73	=73	=73	=73	=73	=73	=73	=73	=73	=73	=73	=73	=73	=73	=73	=73	=73	=73	=73	=73	=73	=73	=73	=73	=73	=73	=73	=73
*	*	*^	*	*	*	*	*	*	*	*	*	*	*	*	*	*	*	*	*	*	*	*	*	*	*	*	*	*	*	*	*	*	*	*	*
!	!	!	!	!	!	!	!	!	!	!	!	!	!	!	!	!	!	!LO:DY:rj	!LO:TX:t=P:problem=mixed beam	!LO:DY:rj	!LO:TX:t=P:problem=mixed beam	!LO:DY:rj	!	!LO:DY:rj	!	!	!	!LO:DY:rj	!	!LO:DY:rj:t=fff.	!	!LO:DY:rj	!LO:TX:t=P:problem=skreślona nuta	!LO:DY:rj	!LO:TX:a:t=dopisane ołówkiem Fl. Cl. i X Cor.	!LO:DY:rj
[2BB/	fff	8BB/	8BB\L	.	4B\	-so-	.	4d\	-so-	.	4g\	-so-	.	4dd\	-so-	.	8Bn/L	fff	8ggL 8bn 8e\	fff	8bbn\L	fff	[2BB/	fff	4..a 4..A^/	.	[2d [2D/	fff >	[2B\	fff >	[2bbn [2dd\	fff >	[2gg\	fff >	[2ggg [>2ddd\	fff
.	.	16r	16ryy	.	.	.	.	.	.	.	.	.	.	.	.	.	16r	.	16r	.	16r	.	.	.	.	.	.	.	.	.	.	.	.	.	.	.
!	!	!LO:TX:t=P:problem=skreślona nuta	!	!	!	!	!	!	!	!	!	!	!	!	!	!	!	!	!	!	!	!	!	!	!	!	!	!	!	!	!	!	!	!	!	!
.	>	16ryy	16GG\Jk	.	.	.	.	.	.	.	.	.	.	.	.	.	16G|/Jk	.	16G|/Jk	.	16G|/Jk	.	.	.	.	.	.	.	.	.	.	.	.	.	.	>
!	!	!LO:TX:t=P:problem=skreślona nuta	!	!	!	!	!	!	!	!	!	!	!	!	!	!	!	!	!	!	!	!	!	!	!	!	!	!	!	!	!	!	!	!	!	!
.	.	4GG\	4ryy	.	8G\	-rum	.	8G/	-rum	.	8g\	-rum	.	8g\	-rum,	.	4G^/	.	4G^/	.	4G^/	.	.	.	.	.	.	.	.	.	.	.	.	.	.	.
.	.	.	.	.	16r	.	.	16r	.	.	16r	.	.	16r	.	.	.	.	.	.	.	.	.	.	.	.	.	.	.	.	.	.	.	.	.	.
.	.	.	.	.	16G\	mar-	.	16G/	mar-	.	16g\	mar-	.	16g\	mar-	.	.	.	.	.	.	.	.	.	16a 16A/	.	.	.	.	.	.	.	.	.	.	.
*	*	*v	*v	*	*	*	*	*	*	*	*	*	*	*	*	*	*	*	*	*	*	*	*	*	*	*	*	*	*	*	*	*	*	*	*	*
=74	=74	=74	=74	=74	=74	=74	=74	=74	=74	=74	=74	=74	=74	=74	=74	=74	=74	=74	=74	=74	=74	=74	=74	=74	=74	=74	=74	=74	=74	=74	=74	=74	=74	=74	=74
!	!	!	!	!	!	!	!	!	!	!	!	!	!	!	!	!LO:TX:t=P:problem=skreślona nuta	!	!	!	!	!	!	!	!	!	!	!	!	!	!	!	!LO:TX:t=P:problem=skreślona nuta	!	!	!
4BB/]	]	2r	.	8.G\	-ti-	.	8.G/	-ti-	.	8.g\	-ti-	.	8.g\	-ti-	.	2r	.	2r	.	2r	.	4BB/]	.	8.aL 8.A/	.	4d] 4D/]	.	4B\]	]	4bb] 4dd\]	]	4gg\]	]	4ggg] 4ddd\]	]
.	.	.	.	16G\	-rum	.	16G/	-rum	.	16g\	-rum	.	16g\	-rum	.	.	.	.	.	.	.	.	.	16aJk 16A/	.	.	]	.	.	.	.	.	.	.	.
4r	.	.	.	8.G\	con-	.	8.G/	con-	.	8.g\	con-	.	8.g\	con-	.	.	.	.	.	.	.	4r	.	8.aL 8.A/	.	4r	.	4r	.	4r	.	4r	.	4r	.
!	!	!	!	!	!	!	!LO:TX:t=P:problem=skreślona nuta	!	!	!	!	!	!	!	!	!	!	!	!	!	!	!	!	!	!	!	!	!	!	!	!	!	!	!	!
.	.	.	.	16G\	-fe-	.	16d/	-fe-	.	16g\	-fe-	.	16g\	-fe-	.	.	.	.	.	.	.	.	.	16aJk 16A/	.	.	.	.	.	.	.	.	.	.	.
=75	=75	=75	=75	=75	=75	=75	=75	=75	=75	=75	=75	=75	=75	=75	=75	=75	=75	=75	=75	=75	=75	=75	=75	=75	=75	=75	=75	=75	=75	=75	=75	=75	=75	=75	=75
*	*	*^	*	*	*	*	*	*	*	*	*	*	*	*	*	*	*	*	*	*	*	*	*	*^	*	*	*	*	*	*	*	*	*	*	*
!	!	!	!LO:TX:a:t=a	!	!	!	!	!	!	!	!	!	!	!	!	!	!LO:TX:t=P:problem=mixed beam	!LO:DY:rj	!LO:TX:t=P:problem=mixed beam	!LO:DY:rj	!LO:TX:t=P:problem=mixed beam	!LO:DY:rj	!	!LO:DY:rj	!	!	!	!	!LO:DY:rj	!	!LO:DY:rj	!	!LO:DY:rj:t=fff.	!	!LO:DY:rj:t=fff.	!	!LO:DY:rj:t=fff.
[2AA/	fff	8A/L	8A\L	.	4A\	-so-	.	4c#X/	-so-	.	4g\	-so-	.	4ee\	-so-	.	8a\L	fff	8aaL 8cc#X 8e\	fff	8eeeL 8a\	fff	[2AA/	fff	4..a/	4A\	.	[2e [2A\	fff >	[2A\	fff >	[2gg [2ee\	fff >	[2cc#X\	fff >	[2ggg [>2eee\	fff
.	.	16r	16ryy	.	.	.	.	.	.	.	.	.	.	.	.	.	16r	.	16r	.	16r	.	.	.	.	.	.	.	.	.	.	.	.	.	.	.	>
!	!	!	!LO:TX:a:t=g	!	!	!	!	!	!	!	!	!	!	!	!	!	!	!	!	!	!	!	!	!	!	!	!	!	!	!	!	!	!	!	!	!	!
.	>	16GG/Jk	16GG\Jk	.	.	.	.	.	.	.	.	.	.	.	.	.	16G/Jk	.	16G/Jk	.	16G/Jk	.	.	.	.	.	.	.	.	.	.	.	.	.	.	.	.
!	!	!	!LO:TX:a:t=g	!	!	!	!	!	!	!	!	!	!	!	!	!	!	!	!	!	!	!	!	!	!	!	!	!	!	!	!	!	!	!	!	!	!
.	.	8GG/	8GG\	.	8G\	-rum	.	8e/	-rum	.	8g\	-rum	.	8g\	-rum	.	8G/L	.	8G/L	.	8G/L	.	.	.	.	4r	.	.	.	.	.	.	.	.	.	.	.
.	.	8r	8ryy	.	16r	.	.	16r	.	.	16r	.	.	16r	.	.	16r	.	16r	.	16r	.	.	.	.	.	.	.	.	.	.	.	.	.	.	.	.
.	.	.	.	.	16G\	Re-	.	16G\	Re-	.	16g\	Re-	.	16g\	Re-	.	16G/Jk	.	16g/Jk	.	16g/Jk	.	.	.	16a/	.	.	.	.	.	.	.	.	.	.	.	.
*	*	*v	*v	*	*	*	*	*	*	*	*	*	*	*	*	*	*	*	*	*	*	*	*	*	*	*	*	*	*	*	*	*	*	*	*	*	*
=76	=76	=76	=76	=76	=76	=76	=76	=76	=76	=76	=76	=76	=76	=76	=76	=76	=76	=76	=76	=76	=76	=76	=76	=76	=76	=76	=76	=76	=76	=76	=76	=76	=76	=76	=76	=76
!	!	!LO:TX:t=P:problem=diminuendolike accent	!	!	!	!	!	!	!	!	!	!	!LO:TX:t=P:problem=skreślone nuty	!	!	!LO:TX:t=P:problem=diminuendolike accent	!	!LO:TX:t=P:problem=diminuendolike accent	!	!LO:TX:t=P:problem=diminuendolike accent	!	!	!	!	!	!	!	!	!	!	!	!	!	!	!	!
8AA/]	]	(4B^<\	.	4B^\	-gi-	.	4B^\	-gi-	.	4b^\	-gi-	.	4b^>/	-gi-	.	(4B^/	.	(4b^/	.	(4b^/	.	8AA/]	.	(<4cc#X^/	2r	.	8e] 8A\]	.	4A\]	.	4gg] 4ee\]	]]	4cc#\]	]	4ggg] 4eee\]	]
8r	.	.	.	.	.	.	.	.	.	.	.	.	.	.	.	.	.	.	.	.	.	8r	.	.	.	.	8r	]	.	.	.	.	.	.	.	.
4r	.	8A\L)	]	8A\L	-na]	.	8A\L	-na]	.	8a\L	-na]	.	8a/L	-na	.	8A/L)	.	8a/L)	.	8a/L)	.	4r	.	8b/L	.	.	4r	.	4r	]	4r	.	4r	.	4r	.
.	.	8G\J	.	8G\J	.	.	8G\J	.	.	8g\J	.	.	8g/J	.	.	8G/J	.	8g/J	.	8g/J	.	.	.	8a/J)	.	.	.	.	.	.	.	.	.	.	.	.
!!LO:PB:g=original
=77	=77	=77	=77	=77	=77	=77	=77	=77	=77	=77	=77	=77	=77	=77	=77	=77	=77	=77	=77	=77	=77	=77	=77	=77	=77	=77	=77	=77	=77	=77	=77	=77	=77	=77	=77	=77
*	*	*	*	*	*	*	*	*	*	*	*	*	*	*	*	*	*	*	*	*	*	*	*	*	*	*	*	*	*	*	*^	*	*	*	*^	*
*	*	*	*	*	*	*	*	*	*	*	*	*	*	*	*	*	*	*tremolo	*	*tremolo	*	*	*	*	*	*	*	*	*	*	*	*	*	*	*	*	*	*
!LO:TX:a:i:t=Col Vcllu	!	!	!	!	!	!	!	!	!	!	!	!	!	!	!	!	!LO:DY:rj:t=fff.	!	!LO:DY:rj:t=fff.	!	!LO:DY:rj:t=ff.	!	!	!	!	!LO:DY:rj:t=fff.	!	!LO:DY:rj:t=fff.	!	!LO:DY:rj:t=fff.	!	!	!LO:DY:rj:t=fff.	!	!LO:DY:rj:t=fff.	!	!	!LO:DY:rj:t=fff.
4D\yy	.	4D\	.	4.d\	.	.	4.d\	.	.	4.d\	.	.	4.dd\	om-	.	8dd 8d\	fff	16ggLL 16b\	fff	16dddLL 16dd\	ff	4D\	fff	[2ee/	2ee\	fff	[2d [2D/	fff	[2B\	fff	[2bb/	[>2gg\	fff	[2gg\	fff	[2ggg/	[>2ggg\	fff
.	.	.	.	.	.	.	.	.	.	.	.	.	.	.	.	.	.	16gg 16b\	.	16ddd 16dd\	.	.	.	.	.	.	.	.	.	.	.	.	.	.	.	.	.	.
.	.	.	.	.	.	.	.	.	.	.	.	.	.	.	.	4dd 4d\	.	16gg 16b\	.	16ddd 16dd\	.	.	.	.	.	.	.	.	.	.	.	.	.	.	.	.	.	.
.	.	.	.	.	.	.	.	.	.	.	.	.	.	.	.	.	.	16gg 16b\	.	16ddd 16dd\	.	.	.	.	.	.	.	.	.	.	.	.	.	.	.	.	.	.
4d\yy	.	4d\	.	.	.	.	.	.	.	.	.	.	.	.	.	.	.	16gg 16b\	.	16ddd 16dd\	.	4D\	.	.	.	.	.	.	.	.	.	.	.	.	.	.	.	.
.	.	.	.	.	.	.	.	.	.	.	.	.	.	.	.	.	.	16gg 16b\	.	16ddd 16dd\	.	.	.	.	.	.	.	.	.	.	.	.	.	.	.	.	.	.
.	.	.	.	8d\	.	.	8d\	.	.	8d\	.	.	8dd\	-ni-	.	[8dd [8d\	.	16gg 16b\	.	16ddd 16dd\	.	.	.	.	.	.	.	.	.	.	.	.	.	.	.	.	.	.
.	.	.	.	.	.	.	.	.	.	.	.	.	.	.	.	.	.	16ggJJ 16b\	.	16dddJJ 16dd\	.	.	.	.	.	.	.	.	.	.	.	.	.	.	.	.	.	.
=78	=78	=78	=78	=78	=78	=78	=78	=78	=78	=78	=78	=78	=78	=78	=78	=78	=78	=78	=78	=78	=78	=78	=78	=78	=78	=78	=78	=78	=78	=78	=78	=78	=78	=78	=78	=78	=78	=78
*	*	*	*	*	*	*	*	*	*	*	*	*	*	*	*	*	*	*rep	*	*rep	*	*	*	*	*	*	*	*	*	*	*	*	*	*	*	*rep	*rep	*
4B\yy	.	4B\	.	4B\	.	.	4B\	.	.	4b\	.	.	4b\	-um	.	8dd] 8d\]	.	16ggLL 16b\	.	16dddLL 16dd\	.	4BB/	.	4ee/]	4ee\	.	4d] 4D/]	.	2B\]	.	2bb/]	2gg\_	.	2gg\_	.	2ggg/_	2ggg\_>	.
.	.	.	.	.	.	.	.	.	.	.	.	.	.	.	.	.	.	16gg 16b\	.	16ddd 16dd\	.	.	.	.	.	.	.	.	.	.	.	.	.	.	.	.	.	.
.	.	.	.	.	.	.	.	.	.	.	.	.	.	.	.	4dd 4d\	.	16gg 16b\	.	16ddd 16dd\	.	.	.	.	.	.	.	.	.	.	.	.	.	.	.	.	.	.
.	.	.	.	.	.	.	.	.	.	.	.	.	.	.	.	.	.	16gg 16b\	.	16ddd 16dd\	.	.	.	.	.	.	.	.	.	.	.	.	.	.	.	.	.	.
4G\yy	.	4G\	.	4G\	.	.	4G\	.	.	4g\	.	.	4g\	San-	.	.	.	16gg 16b\	.	16ddd 16dd\	.	4GG/	.	8.ee/L	8.ee\L	.	8.dL 8.D/	.	.	.	.	.	.	.	.	.	.	.
.	.	.	.	.	.	.	.	.	.	.	.	.	.	.	.	.	.	16gg 16b\	.	16ddd 16dd\	.	.	.	.	.	.	.	.	.	.	.	.	.	.	.	.	.	.
.	.	.	.	.	.	.	.	.	.	.	.	.	.	.	.	[8dd [8d\	.	16gg 16b\	.	16ddd 16dd\	.	.	.	.	.	.	.	.	.	.	.	.	.	.	.	.	.	.
.	.	.	.	.	.	.	.	.	.	.	.	.	.	.	.	.	.	16ggJJ 16b\	.	16dddJJ 16dd\	.	.	.	16ee/Jk	16ee\Jk	.	16dJk 16D/	.	.	.	.	.	.	.	.	.	.	.
*	*	*	*	*	*	*	*	*	*	*	*	*	*	*	*	*	*	*Xrep	*	*Xrep	*	*	*	*	*	*	*	*	*	*	*	*	*	*	*	*Xrep	*Xrep	*
=79	=79	=79	=79	=79	=79	=79	=79	=79	=79	=79	=79	=79	=79	=79	=79	=79	=79	=79	=79	=79	=79	=79	=79	=79	=79	=79	=79	=79	=79	=79	=79	=79	=79	=79	=79	=79	=79	=79
*	*	*	*	*	*	*	*	*	*	*	*	*	*	*	*	*	*	*	*	*	*	*	*	*	*	*	*^	*	*	*	*	*	*	*	*	*	*	*
!	!	!	!	!	!	!	!LO:TX:t=P:problem=skreślona nuta	!	!	!	!	!	!	!	!	!	!	!	!	!	!	!	!	!	!	!	!LO:TX:t=P:problem=skreślone nuty	!	!	!	!	!	!	!	!	!	!	!	!
*	*	*	*	*	*	*	*	*	*	*	*	*	*	*	*	*rep	*	*	*	*rep	*	*	*	*	*	*	*	*	*	*	*	*	*	*	*	*	*rep	*rep	*
4D\yy	.	4D\	.	(2d\	.	.	[2A\	.	.	(2a 2g\	.	.	[2dd\	-cto-	.	8dd] 8d\]	.	16ggLL 16a\	.	16dddLL 16dd\	.	2D^\	.	8ee/	8ee\	.	2e/	2A\	.	2A\	.	[2aa/	2gg\]	.	2gg\]	.	(2ggg/]	(2ggg\]	.
.	.	.	.	.	.	.	.	.	.	.	.	.	.	.	.	.	.	16gg 16a\	.	16ddd 16dd\	.	.	.	.	.	.	.	.	.	.	.	.	.	.	.	.	.	.	.
.	.	.	.	.	.	.	.	.	.	.	.	.	.	.	.	4dd 4d\	.	16gg 16a\	.	16ddd 16dd\	.	.	.	8r	8ryy	.	.	.	.	.	.	.	.	.	.	.	.	.	.
.	.	.	.	.	.	.	.	.	.	.	.	.	.	.	.	.	.	16gg 16a\	.	16ddd 16dd\	.	.	.	.	.	.	.	.	.	.	.	.	.	.	.	.	.	.	.
4D\yy	.	4D\	.	.	.	.	.	.	.	.	.	.	.	.	.	.	.	16gg 16a\	.	16ddd 16dd\	.	.	.	4ee^^/	4ee\	.	.	.	.	.	.	.	.	.	.	.	.	.	.
.	.	.	.	.	.	.	.	.	.	.	.	.	.	.	.	.	.	16gg 16a\	.	16ddd 16dd\	.	.	.	.	.	.	.	.	.	.	.	.	.	.	.	.	.	.	.
.	.	.	.	.	.	.	.	.	.	.	.	.	.	.	.	[8dd [8d\	.	16gg 16a\	.	16ddd 16dd\	.	.	.	.	.	.	.	.	.	.	.	.	.	.	.	.	.	.	.
.	.	.	.	.	.	.	.	.	.	.	.	.	.	.	.	.	.	16ggJJ 16a\	.	16dddJJ 16dd\	.	.	.	.	.	.	.	.	.	.	.	.	.	.	.	.	.	.	.
*	*	*	*	*	*	*	*	*	*	*	*	*	*	*	*	*Xrep	*	*	*	*Xrep	*	*	*	*	*	*	*	*	*	*	*	*	*	*	*	*	*Xrep	*Xrep	*
=80	=80	=80	=80	=80	=80	=80	=80	=80	=80	=80	=80	=80	=80	=80	=80	=80	=80	=80	=80	=80	=80	=80	=80	=80	=80	=80	=80	=80	=80	=80	=80	=80	=80	=80	=80	=80	=80	=80	=80
*	*	*	*	*	*	*	*	*	*	*	*	*	*	*	*	*rep	*	*	*	*rep	*	*	*	*	*	*	*	*	*	*	*	*	*	*	*	*	*	*	*
!	!	!	!	!	!	!	!LO:TX:t=P:problem=skreślona nuta	!	!	!	!	!	!	!	!	!	!	!	!	!	!	!	!	!	!	!	!LO:TX:t=P:problem=skreślone nuty	!	!	!	!	!	!	!	!	!	!	!	!
4D\yy	.	4D\	.	2D\)	.	.	2A\]	.	.	2f#\)	.	.	2dd\]	.	.	8dd] 8d\]	.	16ff#LL 16a\	.	16dddLL 16dd\	.	2D^\	.	4ee^^/	4ee\	.	2f#/	2A\	.	2D\	.	2aa/]	2ff#\	.	2ff#\	.	(2fff#/)	2fff#\)	.
.	.	.	.	.	.	.	.	.	.	.	.	.	.	.	.	.	.	16ff# 16a\	.	16ddd 16dd\	.	.	.	.	.	.	.	.	.	.	.	.	.	.	.	.	.	.	.
.	.	.	.	.	.	.	.	.	.	.	.	.	.	.	.	4dd 4d\	.	16ff# 16a\	.	16ddd 16dd\	.	.	.	.	.	.	.	.	.	.	.	.	.	.	.	.	.	.	.
.	.	.	.	.	.	.	.	.	.	.	.	.	.	.	.	.	.	16ff# 16a\	.	16ddd 16dd\	.	.	.	.	.	.	.	.	.	.	.	.	.	.	.	.	.	.	.
4D\yy	.	4D\	.	.	.	.	.	.	.	.	.	.	.	.	.	.	.	16ff# 16a\	.	16ddd 16dd\	.	.	.	4ee^^/	4ee\	.	.	.	.	.	.	.	.	.	.	.	.	.	.
.	.	.	.	.	.	.	.	.	.	.	.	.	.	.	.	.	.	16ff# 16a\	.	16ddd 16dd\	.	.	.	.	.	.	.	.	.	.	.	.	.	.	.	.	.	.	.
.	.	.	.	.	.	.	.	.	.	.	.	.	.	.	.	8dd 8d\	.	16ff# 16a\	.	16ddd 16dd\	.	.	.	.	.	.	.	.	.	.	.	.	.	.	.	.	.	.	.
.	.	.	.	.	.	.	.	.	.	.	.	.	.	.	.	.	.	16ff#JJ 16a\	.	16dddJJ 16dd\	.	.	.	.	.	.	.	.	.	.	.	.	.	.	.	.	.	.	.
*	*	*	*	*	*	*	*	*	*	*	*	*	*	*	*	*	*	*Xtremolo	*	*Xtremolo	*	*	*	*	*	*	*	*	*	*	*	*	*	*	*	*	*	*	*
*	*	*	*	*	*	*	*	*	*	*	*	*	*	*	*	*Xrep	*	*	*	*Xrep	*	*	*	*	*	*	*	*	*	*	*	*	*	*	*	*	*	*	*
*	*	*	*	*	*	*	*	*	*	*	*	*	*	*	*	*	*	*	*	*	*	*	*	*v	*v	*	*	*	*	*	*	*	*	*	*	*	*	*	*
=81	=81	=81	=81	=81	=81	=81	=81	=81	=81	=81	=81	=81	=81	=81	=81	=81	=81	=81	=81	=81	=81	=81	=81	=81	=81	=81	=81	=81	=81	=81	=81	=81	=81	=81	=81	=81	=81	=81
4GG/yy	.	4GG/	.	4GG/	.	.	4G/	.	.	4g\	.	.	4g\	-[rum]	.	8g\	.	8gg\	.	4dd^^\	.	4GG/	.	4ee^^/	.	4g/	4d\	.	4B\	.	4gg/	4gg\	.	4gg\	.	4ggg/)	4ggg\	.
.	.	.	.	.	.	.	.	.	.	.	.	.	.	.	.	8r	.	8r	.	.	.	.	.	.	.	.	.	.	.	.	.	.	.	.	.	.	.	.
!	!	!	!	!	!	!	!	!	!	!	!	!	!	!	!	!	!	!	!	!	!	!	!	!	!	!LO:TX:a:i:t=muta in B.	!	!	!	!	!LO:TX:a:t=muta\nin B.	!	!	!	!	!	!	!
4ryy	.	4r	.	4r	.	.	4r	.	.	4r	.	.	4r	.	.	4r	.	4g^^/	.	4g^^/	.	4r	.	4a/	.	4r	4ryy	.	4r	.	4r	4ryy	.	4r	.	4r	4ryy	.
*	*	*	*	*	*	*	*	*	*	*	*	*	*	*	*	*	*	*	*	*	*	*	*	*	*	*v	*v	*	*	*	*v	*v	*	*	*	*v	*v	*
=82	=82	=82	=82	=82	=82	=82	=82	=82	=82	=82	=82	=82	=82	=82	=82	=82	=82	=82	=82	=82	=82	=82	=82	=82	=82	=82	=82	=82	=82	=82	=82	=82	=82	=82	=82
!	!	!	!	!	!	!	!	!	!	!	!	!	!	!	!	!	!	!LO:N:vis=8	!	!	!	!	!	!	!	!	!	!	!	!	!	!	!	!	!
2ryy	.	2r	.	2r	.	.	2r	.	.	2r	.	.	2r	.	.	2r	.	8.a^/L	.	8.a^/L	.	2r	.	2r	.	2r	.	2r	.	2r	.	2r	.	2r	.
.	.	.	.	.	.	.	.	.	.	.	.	.	.	.	.	.	.	16f#X/Jk	.	16f#X/Jk	.	.	.	.	.	.	.	.	.	.	.	.	.	.	.
.	.	.	.	.	.	.	.	.	.	.	.	.	.	.	.	.	.	4d/	.	4d/	.	.	.	.	.	.	.	.	.	.	.	.	.	.	.
=83	=83	=83	=83	=83	=83	=83	=83	=83	=83	=83	=83	=83	=83	=83	=83	=83	=83	=83	=83	=83	=83	=83	=83	=83	=83	=83	=83	=83	=83	=83	=83	=83	=83	=83	=83
*	*	*	*	*	*	*	*	*	*	*	*	*	*	*	*	*	*	*	*	*	*	*	*	*	*	*	*	*8va	*	*	*	*	*	*	*
!	!	!	!	!	!	!	!	!	!	!	!	!	!	!	!	!	!LO:DY:rj:t=f.	!	!	!	!	!	!	!	!	!	!	!	!	!	!	!	!	!	!
2ryy	.	2r	.	2r	.	.	2r	.	.	2r	.	.	2r	.	.	4e-X^\	f	4e-X^/	.	4g^/	.	2r	.	2r	.	2r	.	4e-X^^\	.	2r	.	4g^/	.	2r	.
!	!	!	!	!	!	!	!	!	!	!	!	!	!	!	!	!	!	!	!	!	!	!	!	!	!	!	!	!LO:SIC:v:s=4B-	!	!	!	!	!	!	!
.	.	.	.	.	.	.	.	.	.	.	.	.	.	.	.	4B-X^\	.	4d^/	.	4fn^/	.	.	.	.	.	.	.	4B^^/	.	.	.	4fn^/	.	.	.
=84	=84	=84	=84	=84	=84	=84	=84	=84	=84	=84	=84	=84	=84	=84	=84	=84	=84	=84	=84	=84	=84	=84	=84	=84	=84	=84	=84	=84	=84	=84	=84	=84	=84	=84	=84
2ryy	.	2r	.	2r	.	.	2ryy	.	.	2r	.	.	2r	.	.	8.c/L	.	4c^/	.	4e-X/	.	2r	.	2r	.	2r	.	8.c/L	.	2r	.	4e-X^/	.	2r	.
.	.	.	.	.	.	.	.	.	.	.	.	.	.	.	.	16A/Jk	.	.	.	.	.	.	.	.	.	.	.	16A/Jk	.	.	.	.	.	.	.
.	.	.	.	.	.	.	.	.	.	.	.	.	.	.	.	4F#X/	.	4A^/	.	8.d/L	.	.	.	.	.	.	.	4F#X/	.	.	.	8d^/	.	.	.
*	*	*	*	*	*	*	*	*	*	*	*	*	*	*	*	*	*	*	*	*	*	*	*	*	*	*	*	*X8va	*	*	*	*	*	*	*
.	.	.	.	.	.	.	.	.	.	.	.	.	.	.	.	.	.	.	.	.	.	.	.	.	.	.	.	.	.	.	.	8r	.	.	.
.	.	.	.	.	.	.	.	.	.	.	.	.	.	.	.	.	.	.	.	16c/Jk	.	.	.	.	.	.	.	.	.	.	.	.	.	.	.
!!LO:PB:g=original
=85	=85	=85	=85	=85	=85	=85	=85	=85	=85	=85	=85	=85	=85	=85	=85	=85	=85	=85	=85	=85	=85	=85	=85	=85	=85	=85	=85	=85	=85	=85	=85	=85	=85	=85	=85
!	!LO:DY:rj	!	!LO:DY:rj:b	!	!	!	!	!	!	!	!	!	!	!	!	!	!	!	!	!	!	!	!	!	!	!	!	!	!	!	!	!	!	!	!
4G^^\yy	fy	4G^^\	f	2r	.	.	2r	.	.	2r	.	.	2r	.	.	4G/	.	8G/	.	4B-X^/	.	4G^\	.	2r	.	2r	.	(4G\	.	2r	.	2r	.	2r	.
.	.	.	.	.	.	.	.	.	.	.	.	.	.	.	.	.	.	8r	.	.	.	.	.	.	.	.	.	.	.	.	.	.	.	.	.
4D^^\yy	.	4D^^\	.	.	.	.	.	.	.	.	.	.	.	.	.	4D/	.	4B-X^/	.	4g 4G^/	.	4D^\	.	.	.	.	.	4B-X\)	.	.	.	.	.	.	.
=86	=86	=86	=86	=86	=86	=86	=86	=86	=86	=86	=86	=86	=86	=86	=86	=86	=86	=86	=86	=86	=86	=86	=86	=86	=86	=86	=86	=86	=86	=86	=86	=86	=86	=86	=86
8.E-X\Lyy	.	8.E-X\L	.	2r	.	.	2r	.	.	2r	.	.	2r	.	.	8.E-X/L	.	4c^/	.	4g 4G^/	.	4E-X^\	.	2r	.	2r	.	2A^<TT\	.	2r	.	2r	.	2r	.
16C\Jkyy	.	16C\Jk	.	.	.	.	.	.	.	.	.	.	.	.	.	16C/Jk	.	.	.	.	.	.	.	.	.	.	.	.	.	.	.	.	.	.	.
4D\yy	.	4D\	.	.	.	.	.	.	.	.	.	.	.	.	.	4D/	.	4A^/	.	4f#X 4d^/	.	4D^\	.	.	.	.	.	.	.	.	.	.	.	.	.
.	.	.	.	.	.	.	.	.	.	.	.	.	.	.	.	.	.	.	.	.	.	.	.	.	.	.	.	16qqG/LL	.	.	.	.	.	.	.
.	.	.	.	.	.	.	.	.	.	.	.	.	.	.	.	.	.	.	.	.	.	.	.	.	.	.	.	16qqA/JJ	.	.	.	.	.	.	.
=87	=87	=87	=87	=87	=87	=87	=87	=87	=87	=87	=87	=87	=87	=87	=87	=87	=87	=87	=87	=87	=87	=87	=87	=87	=87	=87	=87	=87	=87	=87	=87	=87	=87	=87	=87
!	!	!	!	!	!	!	!	!	!	!	!	!	!	!	!	!	!	!	!	!LO:TX:t=P:problem=diminuendolike accent	!	!LO:TX:t=P:problem=diminuendolike accent	!	!LO:TX:t=P:problem=diminuendolike accent	!	!	!	!LO:TX:t=P:problem=diminuendolike accent	!	!	!	!LO:TX:t=P:problem=diminuendolike accent	!LO:DY:rj	!	!
2GG^;/	.	2D 2GG^;/	.	2r;	.	.	2r;	.	.	2r;	.	.	2r;	.	.	2D^;/	.	2d 2G^;/	.	2g 2G^;/	.	2GG^;/	.	2a 2A^;/	.	2r;	.	2G^<;\	.	2r;	.	2d^;/	f	2r;	.
==	==	==	==	==	==	==	==	==	==	==	==	==	==	==	==	==	==	==	==	==	==	==	==	==	==	==	==	==	==	==	==	==	==	==	==
*-	*-	*-	*-	*-	*-	*-	*-	*-	*-	*-	*-	*-	*-	*-	*-	*-	*-	*-	*-	*-	*-	*-	*-	*-	*-	*-	*-	*-	*-	*-	*-	*-	*-	*-	*-
!!!system-decoration: (<g1><g2><g3>{g4}<s15><s16>)
!!!RDF**kern: > = above
!!!RDF**kern: < = below
!!!RDF**kern: | = vertical stroke
!!!ENC: Andrzej Kubiczek
!!!END: 2021-04-30
!!!ENC: Mateusz Solarz
!!!END: 2021-04-07
!!!YEC: Copyright 2022 Narodowy Instytut Fryderyka Chopina (https://polishscores.org)
!!!YEM: Licence CC BY 4.0 (https://creativecommons.org/licenses/by/4.0)
